;FLAVOR:Marlin
;TIME:609
;Filament used: 0.430998m
;Layer height: 0.2
;MINX:22.7
;MINY:31.5
;MINZ:0.2
;MAXX:212.3
;MAXY:203.5
;MAXZ:0.6
;Generated with Cura_SteamEngine 4.13.0
M140 S60
M105
M190 S60
M104 S200
M105
M109 S200
M82 ;absolute extrusion mode
; Ender 3 Custom Start G-code
G92 E0 ; Reset Extruder
G28 ; Home all axes
G29; Auto Bed Level
G1 Z2.0 F3000 ; Move Z Axis up little to prevent scratching of Heat Bed
G1 X0.1 Y20 Z0.3 F5000.0 ; Move to start position
G1 X0.1 Y200.0 Z0.3 F1500.0 E15 ; Draw the first line
G1 X0.4 Y200.0 Z0.3 F5000.0 ; Move to side a little
G1 X0.4 Y20 Z0.3 F1500.0 E30 ; Draw the second line
G92 E0 ; Reset Extruder
G1 Z2.0 F3000 ; Move Z Axis up little to prevent scratching of Heat Bed
G1 X5 Y20 Z0.3 F5000.0 ; Move over to prevent blob squish
G92 E0
G92 E0
G1 F2700 E-5
;LAYER_COUNT:3
;LAYER:0
M107
G0 F6000 X26.586 Y34.127 Z0.2
;TYPE:SKIRT
G1 F2700 E0
G1 F1200 X27.326 Y33.551 E0.03119
G1 X28.112 Y33.039 E0.06239
G1 X28.939 Y32.597 E0.09358
G1 X29.801 Y32.227 E0.12478
G1 X30.691 Y31.931 E0.15597
G1 X31.603 Y31.713 E0.18716
G1 X32.53 Y31.572 E0.21835
G1 X33.394 Y31.514 E0.24715
G1 X33.638 Y31.507 E0.25527
G1 X34.13 Y31.503 E0.27163
G1 X34.69 Y31.512 E0.29026
G1 X35.286 Y31.538 E0.3101
G1 X36.305 Y31.61 E0.34408
G1 X38.827 Y31.753 E0.4281
G1 X41.385 Y31.825 E0.51321
G1 X43.874 Y31.825 E0.59599
G1 X46.432 Y31.753 E0.68111
G1 X48.916 Y31.612 E0.76386
G1 X49.657 Y31.554 E0.78858
G1 X50.038 Y31.53 E0.80128
G1 X50.401 Y31.513 E0.81336
G1 X50.721 Y31.504 E0.82401
G1 X51.03 Y31.5 E0.83429
G1 X66.993 Y31.5 E1.36522
G1 X67.881 Y31.512 E1.39476
G1 X68.486 Y31.538 E1.4149
G1 X69.505 Y31.61 E1.44888
G1 X72.027 Y31.753 E1.53289
G1 X74.585 Y31.825 E1.61801
G1 X77.074 Y31.825 E1.70079
G1 X79.632 Y31.753 E1.7859
G1 X82.116 Y31.612 E1.86865
G1 X82.857 Y31.554 E1.89338
G1 X83.238 Y31.53 E1.90607
G1 X83.601 Y31.513 E1.91816
G1 X83.921 Y31.504 E1.92881
G1 X84.23 Y31.5 E1.93908
G1 X100.361 Y31.501 E2.4756
G1 X101.081 Y31.512 E2.49955
G1 X101.686 Y31.538 E2.51969
G1 X102.705 Y31.61 E2.55367
G1 X105.227 Y31.753 E2.63769
G1 X107.785 Y31.825 E2.7228
G1 X110.274 Y31.825 E2.80559
G1 X112.832 Y31.753 E2.8907
G1 X115.316 Y31.612 E2.97345
G1 X116.057 Y31.554 E2.99817
G1 X116.438 Y31.53 E3.01087
G1 X116.801 Y31.513 E3.02296
G1 X117.121 Y31.504 E3.0336
G1 X117.43 Y31.5 E3.04388
G1 X133.561 Y31.501 E3.5804
G1 X134.281 Y31.512 E3.60435
G1 X134.886 Y31.538 E3.62449
G1 X135.905 Y31.61 E3.65847
G1 X138.427 Y31.753 E3.74248
G1 X140.985 Y31.825 E3.8276
G1 X143.474 Y31.825 E3.91038
G1 X146.032 Y31.753 E3.9955
G1 X148.516 Y31.612 E4.07825
G1 X149.257 Y31.554 E4.10297
G1 X149.638 Y31.53 E4.11566
G1 X150.001 Y31.513 E4.12775
G1 X150.321 Y31.504 E4.1384
G1 X150.63 Y31.5 E4.14868
G1 X166.761 Y31.501 E4.6852
G1 X167.481 Y31.512 E4.70915
G1 X168.086 Y31.538 E4.72929
G1 X169.105 Y31.61 E4.76326
G1 X171.627 Y31.753 E4.84728
G1 X174.185 Y31.825 E4.93239
G1 X176.674 Y31.825 E5.01518
G1 X179.232 Y31.753 E5.10029
G1 X181.716 Y31.612 E5.18304
G1 X182.457 Y31.554 E5.20776
G1 X182.838 Y31.53 E5.22046
G1 X183.201 Y31.513 E5.23255
G1 X183.521 Y31.504 E5.2432
G1 X183.83 Y31.5 E5.25347
G1 X200.751 Y31.501 E5.81627
G1 X201.449 Y31.511 E5.83949
G1 X202.385 Y31.565 E5.87067
G1 X203.313 Y31.697 E5.90185
G1 X204.227 Y31.909 E5.93305
G1 X205.119 Y32.198 E5.96424
G1 X205.984 Y32.561 E5.99544
G1 X206.814 Y32.997 E6.02662
G1 X207.605 Y33.502 E6.05784
G1 X208.349 Y34.073 E6.08903
G1 X209.042 Y34.705 E6.12022
G1 X209.679 Y35.393 E6.15141
G1 X210.254 Y36.134 E6.1826
G1 X210.765 Y36.92 E6.21379
G1 X211.207 Y37.748 E6.245
G1 X211.576 Y38.61 E6.27619
G1 X211.871 Y39.5 E6.30738
G1 X212.089 Y40.412 E6.33856
G1 X212.229 Y41.34 E6.36978
G1 X212.287 Y42.196 E6.39831
G1 X212.296 Y42.511 E6.4088
G1 X212.3 Y42.825 E6.41924
G1 X212.299 Y191.9 E11.37749
G1 X212.29 Y192.627 E11.40168
G1 X212.239 Y193.564 E11.43289
G1 X212.107 Y194.492 E11.46406
G1 X211.898 Y195.406 E11.49525
G1 X211.611 Y196.299 E11.52645
G1 X211.249 Y197.165 E11.55766
G1 X210.815 Y197.996 E11.58885
G1 X210.311 Y198.787 E11.62004
G1 X209.742 Y199.532 E11.65122
G1 X209.111 Y200.227 E11.68244
G1 X208.424 Y200.865 E11.71362
G1 X207.685 Y201.442 E11.74481
G1 X206.899 Y201.954 E11.77601
G1 X206.073 Y202.397 E11.80718
G1 X205.211 Y202.769 E11.83841
G1 X204.322 Y203.065 E11.86957
G1 X203.41 Y203.285 E11.90078
G1 X202.483 Y203.426 E11.93196
G1 X201.606 Y203.486 E11.9612
G1 X201.362 Y203.493 E11.96932
G1 X200.87 Y203.497 E11.98568
G1 X200.31 Y203.488 E12.00431
G1 X199.714 Y203.462 E12.02415
G1 X198.695 Y203.39 E12.05813
G1 X196.173 Y203.247 E12.14215
G1 X193.615 Y203.175 E12.22726
G1 X191.126 Y203.175 E12.31005
G1 X188.568 Y203.247 E12.39516
G1 X186.084 Y203.388 E12.47791
G1 X185.343 Y203.446 E12.50263
G1 X184.962 Y203.47 E12.51533
G1 X184.599 Y203.487 E12.52741
G1 X184.279 Y203.496 E12.53806
G1 X183.97 Y203.5 E12.54834
G1 X167.052 Y203.499 E13.11104
G1 X166.344 Y203.489 E13.13459
G1 X165.722 Y203.462 E13.15529
G1 X165.187 Y203.424 E13.17313
G1 X162.616 Y203.278 E13.25878
G1 X160.057 Y203.206 E13.34393
G1 X157.569 Y203.206 E13.42668
G1 X155.011 Y203.278 E13.51179
G1 X152.481 Y203.422 E13.59608
G1 X152.082 Y203.451 E13.60938
G1 X151.748 Y203.471 E13.62051
G1 X151.399 Y203.487 E13.63213
G1 X151.079 Y203.496 E13.64278
G1 X150.77 Y203.5 E13.65306
G1 X133.852 Y203.499 E14.21575
G1 X133.144 Y203.489 E14.2393
G1 X132.522 Y203.462 E14.26001
G1 X131.987 Y203.424 E14.27785
G1 X129.416 Y203.278 E14.3635
G1 X126.857 Y203.206 E14.44864
G1 X124.369 Y203.206 E14.5314
G1 X121.811 Y203.278 E14.61651
G1 X119.281 Y203.422 E14.70079
G1 X118.882 Y203.451 E14.7141
G1 X118.548 Y203.471 E14.72523
G1 X118.199 Y203.487 E14.73685
G1 X117.879 Y203.496 E14.7475
G1 X117.57 Y203.5 E14.75777
G1 X100.652 Y203.499 E15.32047
G1 X99.944 Y203.489 E15.34402
G1 X99.322 Y203.462 E15.36473
G1 X98.787 Y203.424 E15.38257
G1 X96.216 Y203.278 E15.46821
G1 X93.657 Y203.206 E15.55336
G1 X91.169 Y203.206 E15.63611
G1 X88.611 Y203.278 E15.72123
G1 X86.081 Y203.422 E15.80551
G1 X85.682 Y203.451 E15.81882
G1 X85.348 Y203.471 E15.82994
G1 X84.999 Y203.487 E15.84156
G1 X84.679 Y203.496 E15.85221
G1 X84.37 Y203.5 E15.86249
G1 X67.452 Y203.499 E16.42519
G1 X66.744 Y203.489 E16.44874
G1 X66.122 Y203.462 E16.46944
G1 X65.587 Y203.424 E16.48728
G1 X63.016 Y203.278 E16.57293
G1 X60.457 Y203.206 E16.65808
G1 X57.969 Y203.206 E16.74083
G1 X55.411 Y203.278 E16.82594
G1 X52.881 Y203.422 E16.91023
G1 X52.482 Y203.451 E16.92353
G1 X52.148 Y203.471 E16.93466
G1 X51.799 Y203.487 E16.94628
G1 X51.479 Y203.496 E16.95693
G1 X51.17 Y203.5 E16.96721
G1 X34.249 Y203.499 E17.53
G1 X33.551 Y203.489 E17.55322
G1 X32.615 Y203.435 E17.5844
G1 X31.687 Y203.303 E17.61558
G1 X30.773 Y203.091 E17.64679
G1 X29.881 Y202.802 E17.67797
G1 X29.016 Y202.439 E17.70917
G1 X28.186 Y202.003 E17.74036
G1 X27.395 Y201.498 E17.77157
G1 X26.651 Y200.927 E17.80276
G1 X25.958 Y200.295 E17.83396
G1 X25.321 Y199.607 E17.86514
G1 X24.746 Y198.866 E17.89634
G1 X24.235 Y198.08 E17.92752
G1 X23.793 Y197.252 E17.95874
G1 X23.424 Y196.39 E17.98992
G1 X23.129 Y195.5 E18.02111
G1 X22.911 Y194.588 E18.0523
G1 X22.771 Y193.66 E18.08351
G1 X22.713 Y192.788 E18.11258
G1 X22.704 Y192.456 E18.12362
G1 X22.7 Y192.158 E18.13354
G1 X22.701 Y43.025 E23.09372
G1 X22.71 Y42.36 E23.11584
G1 X22.763 Y41.424 E23.14702
G1 X22.895 Y40.495 E23.17823
G1 X23.106 Y39.581 E23.20943
G1 X23.394 Y38.689 E23.24061
G1 X23.757 Y37.824 E23.27181
G1 X24.192 Y36.993 E23.303
G1 X24.696 Y36.203 E23.33417
G1 X25.266 Y35.458 E23.36537
G1 X25.898 Y34.764 E23.39659
G1 X26.586 Y34.127 E23.42778
G0 F6000 X26.974 Y34.323
G1 F1200 X27.71 Y33.77 E23.45839
G1 X28.491 Y33.282 E23.48902
G1 X29.311 Y32.864 E23.51964
G1 X30.165 Y32.519 E23.55027
G1 X31.045 Y32.249 E23.58089
G1 X31.945 Y32.057 E23.61149
G1 X32.859 Y31.943 E23.64213
G1 X33.405 Y31.913 E23.66032
G1 X33.649 Y31.906 E23.66844
G1 X34.123 Y31.903 E23.6842
G1 X34.683 Y31.912 E23.70283
G1 X35.257 Y31.937 E23.72194
G1 X36.247 Y32.007 E23.75495
G1 X38.829 Y32.153 E23.84096
G1 X41.374 Y32.225 E23.92565
G1 X43.885 Y32.225 E24.00916
G1 X46.43 Y32.153 E24.09384
G1 X48.971 Y32.009 E24.17849
G1 X49.688 Y31.953 E24.20241
G1 X50.062 Y31.929 E24.21488
G1 X50.412 Y31.913 E24.22653
G1 X50.732 Y31.904 E24.23718
G1 X51.03 Y31.9 E24.24709
G1 X66.993 Y31.9 E24.77802
G1 X67.875 Y31.912 E24.80736
G1 X68.457 Y31.937 E24.82673
G1 X69.447 Y32.007 E24.85974
G1 X72.029 Y32.153 E24.94576
G1 X74.574 Y32.225 E25.03044
G1 X77.085 Y32.225 E25.11396
G1 X79.63 Y32.153 E25.19864
G1 X82.171 Y32.009 E25.28329
G1 X82.888 Y31.953 E25.30721
G1 X83.262 Y31.929 E25.31967
G1 X83.612 Y31.913 E25.33133
G1 X83.932 Y31.904 E25.34197
G1 X84.23 Y31.9 E25.35189
G1 X100.355 Y31.901 E25.8882
G1 X101.075 Y31.912 E25.91215
G1 X101.657 Y31.937 E25.93153
G1 X102.647 Y32.007 E25.96454
G1 X105.229 Y32.153 E26.05055
G1 X107.774 Y32.225 E26.13524
G1 X110.285 Y32.225 E26.21875
G1 X112.83 Y32.153 E26.30343
G1 X115.371 Y32.009 E26.38808
G1 X116.088 Y31.953 E26.412
G1 X116.462 Y31.929 E26.42447
G1 X116.812 Y31.913 E26.43612
G1 X117.132 Y31.904 E26.44677
G1 X117.43 Y31.9 E26.45668
G1 X133.555 Y31.901 E26.993
G1 X134.275 Y31.912 E27.01695
G1 X134.857 Y31.937 E27.03633
G1 X135.847 Y32.007 E27.06934
G1 X138.429 Y32.153 E27.15535
G1 X140.974 Y32.225 E27.24003
G1 X143.485 Y32.225 E27.32355
G1 X146.03 Y32.153 E27.40823
G1 X148.571 Y32.009 E27.49288
G1 X149.288 Y31.953 E27.5168
G1 X149.662 Y31.929 E27.52926
G1 X150.012 Y31.913 E27.54092
G1 X150.332 Y31.904 E27.55156
G1 X150.63 Y31.9 E27.56148
G1 X166.755 Y31.901 E28.0978
G1 X167.475 Y31.912 E28.12175
G1 X168.057 Y31.937 E28.14112
G1 X169.047 Y32.007 E28.17413
G1 X171.629 Y32.153 E28.26015
G1 X174.174 Y32.225 E28.34483
G1 X176.685 Y32.225 E28.42834
G1 X179.23 Y32.153 E28.51302
G1 X181.771 Y32.009 E28.59767
G1 X182.488 Y31.953 E28.62159
G1 X182.862 Y31.929 E28.63406
G1 X183.212 Y31.913 E28.64571
G1 X183.532 Y31.904 E28.65636
G1 X183.83 Y31.9 E28.66627
G1 X200.745 Y31.901 E29.22887
G1 X201.443 Y31.911 E29.25208
G1 X202.362 Y31.964 E29.2827
G1 X203.273 Y32.097 E29.31332
G1 X204.169 Y32.308 E29.34394
G1 X205.043 Y32.596 E29.37455
G1 X205.89 Y32.959 E29.4052
G1 X206.701 Y33.394 E29.4358
G1 X207.471 Y33.898 E29.46641
G1 X208.195 Y34.467 E29.49704
G1 X208.867 Y35.097 E29.52768
G1 X209.482 Y35.782 E29.5583
G1 X210.035 Y36.518 E29.58891
G1 X210.522 Y37.299 E29.61953
G1 X210.939 Y38.12 E29.65015
G1 X211.284 Y38.974 E29.68079
G1 X211.553 Y39.854 E29.71139
G1 X211.745 Y40.755 E29.74203
G1 X211.858 Y41.668 E29.77263
G1 X211.887 Y42.207 E29.79059
G1 X211.896 Y42.522 E29.80107
G1 X211.9 Y42.825 E29.81115
G1 X211.899 Y191.895 E34.76923
G1 X211.89 Y192.622 E34.79342
G1 X211.839 Y193.541 E34.82403
G1 X211.708 Y194.453 E34.85467
G1 X211.498 Y195.349 E34.88528
G1 X211.212 Y196.224 E34.9159
G1 X210.851 Y197.071 E34.94652
G1 X210.417 Y197.883 E34.97715
G1 X209.915 Y198.655 E35.00777
G1 X209.347 Y199.38 E35.03841
G1 X208.719 Y200.053 E35.06902
G1 X208.035 Y200.669 E35.09964
G1 X207.3 Y201.223 E35.13025
G1 X206.52 Y201.712 E35.16087
G1 X205.7 Y202.131 E35.1915
G1 X204.847 Y202.477 E35.22211
G1 X203.967 Y202.748 E35.25274
G1 X203.067 Y202.941 E35.28335
G1 X202.153 Y203.056 E35.31399
G1 X201.595 Y203.087 E35.33258
G1 X201.351 Y203.094 E35.3407
G1 X200.877 Y203.097 E35.35647
G1 X200.317 Y203.088 E35.37509
G1 X199.743 Y203.063 E35.3942
G1 X198.753 Y202.993 E35.42721
G1 X196.171 Y202.847 E35.51323
G1 X193.626 Y202.775 E35.59791
G1 X191.115 Y202.775 E35.68143
G1 X188.57 Y202.847 E35.76611
G1 X186.029 Y202.991 E35.85076
G1 X185.312 Y203.047 E35.87468
G1 X184.938 Y203.071 E35.88714
G1 X184.588 Y203.087 E35.89879
G1 X184.268 Y203.096 E35.90944
G1 X183.97 Y203.1 E35.91935
G1 X167.057 Y203.099 E36.48188
G1 X166.349 Y203.089 E36.50543
G1 X165.75 Y203.063 E36.52537
G1 X165.239 Y203.027 E36.54241
G1 X162.614 Y202.878 E36.62986
G1 X160.068 Y202.806 E36.71458
G1 X157.558 Y202.806 E36.79806
G1 X155.013 Y202.878 E36.88274
G1 X152.474 Y203.022 E36.96732
G1 X152.058 Y203.052 E36.98119
G1 X151.724 Y203.072 E36.99232
G1 X151.388 Y203.087 E37.00351
G1 X151.068 Y203.096 E37.01416
G1 X150.77 Y203.1 E37.02407
G1 X133.857 Y203.099 E37.5866
G1 X133.149 Y203.089 E37.61015
G1 X132.55 Y203.063 E37.63009
G1 X132.039 Y203.027 E37.64713
G1 X129.414 Y202.878 E37.73458
G1 X126.868 Y202.806 E37.81929
G1 X124.358 Y202.806 E37.90277
G1 X121.813 Y202.878 E37.98745
G1 X119.274 Y203.022 E38.07204
G1 X118.858 Y203.052 E38.08591
G1 X118.524 Y203.072 E38.09704
G1 X118.188 Y203.087 E38.10823
G1 X117.868 Y203.096 E38.11887
G1 X117.57 Y203.1 E38.12879
G1 X100.657 Y203.099 E38.69131
G1 X99.949 Y203.089 E38.71486
G1 X99.35 Y203.063 E38.73481
G1 X98.839 Y203.027 E38.75184
G1 X96.214 Y202.878 E38.83929
G1 X93.668 Y202.806 E38.92401
G1 X91.158 Y202.806 E39.00749
G1 X88.613 Y202.878 E39.09217
G1 X86.074 Y203.022 E39.17675
G1 X85.658 Y203.052 E39.19063
G1 X85.324 Y203.072 E39.20175
G1 X84.988 Y203.087 E39.21294
G1 X84.668 Y203.096 E39.22359
G1 X84.37 Y203.1 E39.2335
G1 X67.457 Y203.099 E39.79603
G1 X66.749 Y203.089 E39.81958
G1 X66.15 Y203.063 E39.83952
G1 X65.639 Y203.027 E39.85656
G1 X63.014 Y202.878 E39.94401
G1 X60.468 Y202.806 E40.02872
G1 X57.958 Y202.806 E40.11221
G1 X55.413 Y202.878 E40.19689
G1 X52.874 Y203.022 E40.28147
G1 X52.458 Y203.052 E40.29534
G1 X52.124 Y203.072 E40.30647
G1 X51.788 Y203.087 E40.31766
G1 X51.468 Y203.096 E40.3283
G1 X51.17 Y203.1 E40.33822
G1 X34.255 Y203.099 E40.90081
G1 X33.557 Y203.089 E40.92403
G1 X32.638 Y203.036 E40.95465
G1 X31.727 Y202.903 E40.98527
G1 X30.831 Y202.692 E41.01588
G1 X29.957 Y202.404 E41.04649
G1 X29.11 Y202.041 E41.07714
G1 X28.299 Y201.606 E41.10775
G1 X27.529 Y201.102 E41.13836
G1 X26.805 Y200.533 E41.16899
G1 X26.133 Y199.903 E41.19962
G1 X25.518 Y199.218 E41.23024
G1 X24.965 Y198.482 E41.26086
G1 X24.478 Y197.701 E41.29147
G1 X24.061 Y196.88 E41.3221
G1 X23.716 Y196.026 E41.35273
G1 X23.447 Y195.146 E41.38334
G1 X23.255 Y194.245 E41.41398
G1 X23.142 Y193.332 E41.44458
G1 X23.113 Y192.777 E41.46306
G1 X23.104 Y192.445 E41.47411
G1 X23.1 Y192.158 E41.48366
G1 X23.101 Y43.031 E46.44364
G1 X23.11 Y42.366 E46.46576
G1 X23.162 Y41.446 E46.49641
G1 X23.294 Y40.535 E46.52702
G1 X23.505 Y39.639 E46.55764
G1 X23.792 Y38.764 E46.58827
G1 X24.155 Y37.918 E46.61889
G1 X24.589 Y37.106 E46.64951
G1 X25.092 Y36.335 E46.68013
G1 X25.661 Y35.611 E46.71076
G1 X26.289 Y34.939 E46.74135
G1 X26.974 Y34.323 E46.77199
G0 F6000 X27.362 Y34.524
G1 F1200 X28.094 Y33.994 E46.80205
G1 X28.869 Y33.531 E46.83207
G1 X29.682 Y33.138 E46.86211
G1 X30.527 Y32.818 E46.89216
G1 X31.396 Y32.575 E46.92217
G1 X32.284 Y32.409 E46.95222
G1 X33.416 Y32.313 E46.99
G1 X33.66 Y32.306 E46.99812
G1 X34.117 Y32.303 E47.01332
G1 X34.677 Y32.312 E47.03195
G1 X35.229 Y32.336 E47.05033
G1 X36.198 Y32.404 E47.08264
G1 X38.829 Y32.553 E47.17028
G1 X41.363 Y32.625 E47.2546
G1 X43.896 Y32.625 E47.33885
G1 X46.43 Y32.553 E47.42316
G1 X49.023 Y32.406 E47.50954
G1 X49.891 Y32.34 E47.5385
G1 X50.087 Y32.328 E47.54503
G1 X50.423 Y32.313 E47.55621
G1 X50.743 Y32.304 E47.56686
G1 X51.03 Y32.3 E47.57641
G1 X66.993 Y32.3 E48.10734
G1 X67.869 Y32.312 E48.13648
G1 X68.429 Y32.336 E48.15512
G1 X69.398 Y32.404 E48.18743
G1 X72.029 Y32.553 E48.27508
G1 X74.563 Y32.625 E48.35939
G1 X77.096 Y32.625 E48.44364
G1 X79.63 Y32.553 E48.52796
G1 X82.223 Y32.406 E48.61434
G1 X83.091 Y32.34 E48.64329
G1 X83.287 Y32.328 E48.64982
G1 X83.623 Y32.313 E48.66101
G1 X83.943 Y32.304 E48.67166
G1 X84.23 Y32.3 E48.6812
G1 X100.349 Y32.301 E49.21732
G1 X101.069 Y32.312 E49.24127
G1 X101.629 Y32.336 E49.25992
G1 X102.598 Y32.404 E49.29222
G1 X105.229 Y32.553 E49.37987
G1 X107.763 Y32.625 E49.46419
G1 X110.296 Y32.625 E49.54843
G1 X112.83 Y32.553 E49.63275
G1 X115.423 Y32.406 E49.71913
G1 X116.291 Y32.34 E49.74809
G1 X116.487 Y32.328 E49.75462
G1 X116.823 Y32.313 E49.7658
G1 X117.143 Y32.304 E49.77645
G1 X117.43 Y32.3 E49.786
G1 X133.549 Y32.301 E50.32212
G1 X134.269 Y32.312 E50.34607
G1 X134.829 Y32.336 E50.36471
G1 X135.798 Y32.404 E50.39702
G1 X138.429 Y32.553 E50.48467
G1 X140.963 Y32.625 E50.56898
G1 X143.496 Y32.625 E50.65323
G1 X146.03 Y32.553 E50.73754
G1 X148.623 Y32.406 E50.82393
