;FLAVOR:Marlin
;TIME:3340
;Filament used: 0.784475m
;Layer height: 0.1
;MINX:92.981
;MINY:92.981
;MINZ:0.12
;MAXX:142.019
;MAXY:142.019
;MAXZ:7.02
;Generated with Cura_SteamEngine 4.13.0
M140 S60
M105
M190 S60
M104 S220
M105
M109 S220
M82 ;absolute extrusion mode
; Ender 3 Custom Start G-code
G92 E0 ; Reset Extruder
G28 ; Home all axes
G29; Auto Bed Level
G1 Z2.0 F3000 ; Move Z Axis up little to prevent scratching of Heat Bed
G1 X0.1 Y20 Z0.3 F5000.0 ; Move to start position
G1 X0.1 Y200.0 Z0.3 F1500.0 E15 ; Draw the first line
G1 X0.4 Y200.0 Z0.3 F5000.0 ; Move to side a little
G1 X0.4 Y20 Z0.3 F1500.0 E30 ; Draw the second line
G92 E0 ; Reset Extruder
G1 Z2.0 F3000 ; Move Z Axis up little to prevent scratching of Heat Bed
G1 X5 Y20 Z0.3 F5000.0 ; Move over to prevent blob squish
G92 E0
G92 E0
G1 F2700 E-5
;LAYER_COUNT:70
;LAYER:0
M107
G0 F6000 X100.041 Y100.284 Z0.12
;TYPE:SKIRT
G1 F2700 E0
G1 F1200 X100.285 Y100.044 E0.00683
G1 X100.9 Y99.458 E0.02378
G1 X101.164 Y99.214 E0.03096
G1 X101.573 Y98.863 E0.04171
G1 X102.169 Y98.375 E0.05708
G1 X102.81 Y97.874 E0.07332
G1 X103.132 Y97.632 E0.08136
G1 X103.306 Y97.506 E0.08565
G1 X103.551 Y97.333 E0.09163
G1 X103.862 Y97.123 E0.09912
G1 X104.246 Y96.871 E0.10828
G1 X104.546 Y96.681 E0.11537
G1 X104.839 Y96.502 E0.12222
G1 X105.065 Y96.368 E0.12747
G1 X105.459 Y96.14 E0.13655
G1 X105.72 Y95.994 E0.14252
G1 X106 Y95.842 E0.14888
G1 X106.39 Y95.64 E0.15764
G1 X106.902 Y95.388 E0.16903
G1 X107.308 Y95.197 E0.17798
G1 X107.531 Y95.097 E0.18286
G1 X107.943 Y94.918 E0.19183
G1 X108.241 Y94.794 E0.19827
G1 X108.555 Y94.67 E0.205
G1 X109.152 Y94.444 E0.21774
G1 X109.708 Y94.248 E0.22951
G1 X109.866 Y94.195 E0.23283
G1 X110.214 Y94.085 E0.24012
G1 X110.659 Y93.952 E0.24939
G1 X110.951 Y93.869 E0.25544
G1 X111.174 Y93.809 E0.26005
G1 X111.449 Y93.739 E0.26571
G1 X112.074 Y93.588 E0.27855
G1 X112.454 Y93.503 E0.28632
G1 X112.86 Y93.42 E0.29459
G1 X113.389 Y93.325 E0.30531
G1 X113.967 Y93.236 E0.31698
G1 X114.285 Y93.192 E0.32339
G1 X114.752 Y93.134 E0.33278
G1 X115.248 Y93.084 E0.34273
G1 X115.86 Y93.036 E0.35498
G1 X116.353 Y93.005 E0.36484
G1 X116.853 Y92.987 E0.37482
G1 X117.32 Y92.981 E0.38414
G1 X117.629 Y92.981 E0.39031
G1 X118.088 Y92.988 E0.39947
G1 X118.389 Y92.997 E0.40548
G1 X118.647 Y93.008 E0.41063
G1 X118.938 Y93.024 E0.41645
G1 X119.501 Y93.063 E0.42771
G1 X120.056 Y93.116 E0.43884
G1 X120.795 Y93.205 E0.45369
G1 X121.168 Y93.256 E0.4612
G1 X121.535 Y93.313 E0.46861
G1 X122.014 Y93.397 E0.47832
G1 X122.338 Y93.46 E0.48491
G1 X122.832 Y93.565 E0.49499
G1 X123.196 Y93.649 E0.50244
G1 X123.486 Y93.721 E0.5084
G1 X123.729 Y93.785 E0.51342
G1 X124.301 Y93.941 E0.52525
G1 X124.907 Y94.125 E0.53789
G1 X125.202 Y94.224 E0.5441
G1 X125.521 Y94.336 E0.55084
G1 X126.55 Y94.717 E0.57274
G1 X127.103 Y94.939 E0.58463
G1 X127.387 Y95.062 E0.59081
G1 X127.646 Y95.178 E0.59647
G1 X128.064 Y95.372 E0.60567
G1 X128.308 Y95.489 E0.61107
G1 X128.664 Y95.665 E0.61899
G1 X129.136 Y95.913 E0.62964
G1 X129.634 Y96.19 E0.64101
G1 X130.042 Y96.429 E0.65044
G1 X130.586 Y96.763 E0.66318
G1 X130.979 Y97.016 E0.67251
G1 X131.16 Y97.138 E0.67687
G1 X131.457 Y97.345 E0.68409
G1 X132.233 Y97.906 E0.7032
G1 X132.526 Y98.125 E0.7105
G1 X132.837 Y98.366 E0.71835
G1 X133.319 Y98.762 E0.7308
G1 X133.719 Y99.11 E0.74138
G1 X133.956 Y99.323 E0.74774
G1 X134.303 Y99.643 E0.75716
G1 X134.57 Y99.897 E0.76451
G1 X134.716 Y100.041 E0.76861
G1 X134.951 Y100.28 E0.77529
G1 X135.533 Y100.89 E0.79212
G1 X135.836 Y101.221 E0.80107
G1 X136.13 Y101.565 E0.8101
G1 X136.623 Y102.167 E0.82563
G1 X137.118 Y102.8 E0.84167
G1 X137.366 Y103.13 E0.84991
G1 X137.618 Y103.482 E0.85855
G1 X137.884 Y103.871 E0.86795
G1 X138.133 Y104.251 E0.87702
G1 X138.328 Y104.56 E0.88431
G1 X138.507 Y104.854 E0.89118
G1 X138.651 Y105.098 E0.89683
G1 X138.779 Y105.321 E0.90196
G1 X138.923 Y105.579 E0.90786
G1 X139.242 Y106.171 E0.92128
G1 X139.402 Y106.481 E0.92824
G1 X139.578 Y106.834 E0.93611
G1 X139.717 Y107.123 E0.94251
G1 X139.81 Y107.324 E0.94693
G1 X139.933 Y107.6 E0.95296
G1 X140.086 Y107.956 E0.96069
G1 X140.192 Y108.21 E0.96619
G1 X140.363 Y108.637 E0.97537
G1 X140.498 Y108.993 E0.98296
G1 X140.669 Y109.467 E0.99302
G1 X140.771 Y109.762 E0.99925
G1 X140.902 Y110.172 E1.00784
G1 X141.035 Y110.612 E1.01701
G1 X141.134 Y110.958 E1.02419
G1 X141.197 Y111.194 E1.02907
G1 X141.264 Y111.459 E1.03452
G1 X141.41 Y112.066 E1.04698
G1 X141.484 Y112.398 E1.05377
G1 X141.567 Y112.797 E1.0619
G1 X141.67 Y113.363 E1.07338
G1 X141.765 Y113.98 E1.08584
G1 X141.811 Y114.31 E1.09249
G1 X141.867 Y114.765 E1.10164
G1 X141.901 Y115.086 E1.10808
G1 X141.938 Y115.482 E1.11602
G1 X141.968 Y115.875 E1.12388
G1 X141.996 Y116.363 E1.13364
G1 X142.013 Y116.852 E1.1434
G1 X142.019 Y117.32 E1.15274
G1 X142.019 Y117.629 E1.15891
G1 X142.012 Y118.088 E1.16807
G1 X142.003 Y118.383 E1.17396
G1 X141.992 Y118.644 E1.17917
G1 X141.976 Y118.938 E1.18505
G1 X141.938 Y119.489 E1.19607
G1 X141.885 Y120.046 E1.20724
G1 X141.795 Y120.794 E1.22227
G1 X141.744 Y121.165 E1.22974
G1 X141.693 Y121.494 E1.23639
G1 X141.627 Y121.877 E1.24414
G1 X141.556 Y122.248 E1.25168
G1 X141.503 Y122.506 E1.25694
G1 X141.369 Y123.116 E1.2694
G1 X141.304 Y123.388 E1.27498
G1 X141.223 Y123.704 E1.28149
G1 X141.088 Y124.203 E1.29181
G1 X140.979 Y124.581 E1.29966
G1 X140.879 Y124.899 E1.30631
G1 X140.787 Y125.175 E1.31212
G1 X140.665 Y125.52 E1.31942
G1 X140.269 Y126.588 E1.34215
G1 X140.047 Y127.141 E1.35404
G1 X139.962 Y127.337 E1.35831
G1 X139.844 Y127.599 E1.36404
G1 X139.624 Y128.072 E1.37445
G1 X139.517 Y128.295 E1.37939
G1 X139.347 Y128.64 E1.38706
G1 X139.104 Y129.106 E1.39755
G1 X138.82 Y129.619 E1.40925
G1 X138.559 Y130.065 E1.41956
G1 X138.226 Y130.605 E1.43222
G1 X137.999 Y130.957 E1.44058
G1 X137.883 Y131.13 E1.44474
G1 X137.657 Y131.455 E1.45264
G1 X137.093 Y132.234 E1.47183
G1 X136.884 Y132.513 E1.47879
G1 X136.645 Y132.822 E1.48658
G1 X136.254 Y133.299 E1.49889
G1 X135.901 Y133.706 E1.50964
G1 X135.677 Y133.956 E1.51634
G1 X135.357 Y134.303 E1.52576
G1 X135.103 Y134.57 E1.53312
G1 X134.959 Y134.716 E1.53721
G1 X134.72 Y134.951 E1.5439
G1 X134.11 Y135.533 E1.56072
G1 X133.795 Y135.823 E1.56927
G1 X133.427 Y136.137 E1.57892
G1 X132.833 Y136.623 E1.59424
G1 X132.2 Y137.118 E1.61027
G1 X131.904 Y137.342 E1.61768
G1 X131.701 Y137.49 E1.62269
G1 X131.402 Y137.701 E1.63
G1 X131.138 Y137.878 E1.63634
G1 X130.732 Y138.143 E1.64602
G1 X130.441 Y138.327 E1.65289
G1 X129.941 Y138.629 E1.66454
G1 X129.725 Y138.754 E1.66952
G1 X129.419 Y138.924 E1.67651
G1 X128.797 Y139.258 E1.6906
G1 X128.501 Y139.412 E1.69726
G1 X128.162 Y139.581 E1.70482
G1 X127.867 Y139.722 E1.71134
G1 X127.67 Y139.813 E1.71567
G1 X127.419 Y139.925 E1.72116
G1 X127.037 Y140.09 E1.72946
G1 X126.76 Y140.205 E1.73545
G1 X126.462 Y140.324 E1.74185
G1 X126.103 Y140.462 E1.74952
G1 X125.848 Y140.556 E1.75495
G1 X125.273 Y140.759 E1.76712
G1 X125.12 Y140.81 E1.77034
G1 X124.822 Y140.904 E1.77657
G1 X124.385 Y141.036 E1.78568
G1 X124.044 Y141.133 E1.79276
G1 X123.812 Y141.195 E1.79755
G1 X123.551 Y141.261 E1.80292
G1 X122.925 Y141.412 E1.81577
G1 X122.554 Y141.495 E1.82336
G1 X122.144 Y141.579 E1.83171
G1 X121.599 Y141.677 E1.84276
G1 X121.03 Y141.764 E1.85425
G1 X120.72 Y141.806 E1.86049
G1 X120.244 Y141.865 E1.87006
G1 X119.899 Y141.903 E1.87699
G1 X119.486 Y141.941 E1.88527
G1 X119.108 Y141.969 E1.89283
G1 X118.637 Y141.996 E1.90224
G1 X118.148 Y142.013 E1.91201
G1 X117.68 Y142.019 E1.92135
G1 X117.371 Y142.019 E1.92752
G1 X116.912 Y142.012 E1.93668
G1 X116.611 Y142.003 E1.94269
G1 X116.353 Y141.992 E1.94784
G1 X116.062 Y141.976 E1.95366
G1 X115.499 Y141.937 E1.96492
G1 X114.944 Y141.884 E1.97604
G1 X114.205 Y141.795 E1.9909
G1 X113.824 Y141.742 E1.99857
G1 X113.478 Y141.688 E2.00556
G1 X113.098 Y141.622 E2.01326
G1 X112.713 Y141.548 E2.02108
G1 X112.472 Y141.499 E2.02599
G1 X112.124 Y141.424 E2.0331
G1 X111.801 Y141.349 E2.03971
G1 X111.319 Y141.228 E2.04963
G1 X110.816 Y141.093 E2.06002
G1 X110.458 Y140.991 E2.06745
G1 X110.093 Y140.875 E2.07509
G1 X109.798 Y140.776 E2.0813
G1 X109.479 Y140.664 E2.08805
G1 X108.45 Y140.283 E2.10995
G1 X107.897 Y140.061 E2.12184
G1 X107.613 Y139.938 E2.12802
G1 X107.354 Y139.822 E2.13368
G1 X106.936 Y139.628 E2.14288
G1 X106.692 Y139.511 E2.14828
G1 X106.338 Y139.336 E2.15616
G1 X105.871 Y139.091 E2.16668
G1 X105.367 Y138.811 E2.17819
G1 X104.939 Y138.56 E2.18809
G1 X104.392 Y138.223 E2.20091
G1 X104.024 Y137.986 E2.20964
G1 X103.85 Y137.869 E2.21383
G1 X103.542 Y137.654 E2.22132
G1 X102.982 Y137.249 E2.23512
G1 X102.618 Y136.975 E2.24421
G1 X101.881 Y136.394 E2.26294
G1 X101.447 Y136.033 E2.2742
G1 X101.239 Y135.851 E2.27972
G1 X101.031 Y135.664 E2.2853
G1 X100.702 Y135.361 E2.29423
G1 X100.457 Y135.128 E2.30097
G1 X100.311 Y134.985 E2.30505
G1 X100.05 Y134.721 E2.31246
G1 X99.467 Y134.11 E2.32931
G1 X99.154 Y133.768 E2.33856
G1 X98.849 Y133.411 E2.34793
G1 X98.376 Y132.832 E2.36285
G1 X97.881 Y132.199 E2.37889
G1 X97.646 Y131.887 E2.38669
G1 X97.516 Y131.708 E2.3911
G1 X97.341 Y131.46 E2.39716
G1 X97.115 Y131.127 E2.40519
G1 X96.866 Y130.747 E2.41426
G1 X96.676 Y130.446 E2.42136
G1 X96.493 Y130.146 E2.42837
G1 X96.359 Y129.92 E2.43361
G1 X96.132 Y129.527 E2.44267
G1 X96.006 Y129.303 E2.4478
G1 X95.872 Y129.058 E2.45337
G1 X95.655 Y128.641 E2.46275
G1 X95.389 Y128.101 E2.47477
G1 X95.183 Y127.661 E2.48446
G1 X95.078 Y127.426 E2.4896
G1 X94.92 Y127.06 E2.49755
G1 X94.807 Y126.789 E2.50341
G1 X94.634 Y126.357 E2.5127
G1 X94.485 Y125.962 E2.52113
G1 X94.316 Y125.488 E2.53117
G1 X94.184 Y125.098 E2.53938
G1 X94.096 Y124.821 E2.54518
G1 X93.964 Y124.384 E2.55429
G1 X93.872 Y124.063 E2.56096
G1 X93.809 Y123.829 E2.56579
G1 X93.736 Y123.543 E2.57168
G1 X93.588 Y122.928 E2.58431
G1 X93.508 Y122.568 E2.59167
G1 X93.426 Y122.169 E2.5998
G1 X93.329 Y121.625 E2.61082
G1 X93.233 Y121 E2.62344
G1 X93.187 Y120.673 E2.63003
G1 X93.133 Y120.234 E2.63886
G1 X93.097 Y119.899 E2.64558
G1 X93.059 Y119.486 E2.65386
G1 X93.031 Y119.108 E2.66142
G1 X93.004 Y118.637 E2.67084
G1 X92.987 Y118.142 E2.68072
G1 X92.981 Y117.654 E2.69046
G1 X92.981 Y117.344 E2.69665
G1 X92.988 Y116.905 E2.70541
G1 X92.997 Y116.611 E2.71128
G1 X93.008 Y116.353 E2.71643
G1 X93.024 Y116.062 E2.72225
G1 X93.063 Y115.499 E2.73351
G1 X93.115 Y114.947 E2.74458
G1 X93.204 Y114.206 E2.75947
G1 X93.263 Y113.788 E2.76789
G1 X93.324 Y113.405 E2.77563
G1 X93.388 Y113.043 E2.78297
G1 X93.496 Y112.493 E2.79416
G1 X93.565 Y112.169 E2.80077
G1 X93.646 Y111.818 E2.80795
G1 X93.717 Y111.531 E2.81385
G1 X93.783 Y111.279 E2.81905
G1 X93.897 Y110.861 E2.8277
G1 X93.966 Y110.618 E2.83274
G1 X94.052 Y110.329 E2.83876
G1 X94.22 Y109.811 E2.84963
G1 X94.371 Y109.387 E2.85861
G1 X94.716 Y108.454 E2.87846
G1 X94.932 Y107.914 E2.89006
G1 X95.054 Y107.631 E2.89621
G1 X95.188 Y107.333 E2.90274
G1 X95.371 Y106.941 E2.91137
G1 X95.49 Y106.694 E2.91684
G1 X95.691 Y106.29 E2.92584
G1 X95.905 Y105.881 E2.93506
G1 X96.153 Y105.431 E2.94531
G1 X96.404 Y104.999 E2.95528
G1 X96.754 Y104.427 E2.96866
G1 X97.034 Y103.993 E2.97897
G1 X97.169 Y103.794 E2.98377
G1 X97.365 Y103.514 E2.99059
G1 X97.91 Y102.762 E3.00912
G1 X98.093 Y102.517 E3.01523
G1 X98.444 Y102.064 E3.02666
G1 X98.752 Y101.693 E3.03628
G1 X99.098 Y101.294 E3.04682
G1 X99.323 Y101.044 E3.05354
G1 X99.643 Y100.697 E3.06296
G1 X99.897 Y100.43 E3.07031
G1 X100.041 Y100.284 E3.0744
G0 F6000 X100.326 Y100.565
G1 F1200 X100.561 Y100.334 E3.08098
G1 X101.176 Y99.748 E3.09793
G1 X101.432 Y99.511 E3.10489
G1 X101.826 Y99.172 E3.11526
G1 X102.415 Y98.69 E3.13045
G1 X103.056 Y98.189 E3.14669
G1 X103.367 Y97.956 E3.15444
G1 X103.541 Y97.83 E3.15873
G1 X103.777 Y97.664 E3.16449
G1 X104.081 Y97.458 E3.17182
G1 X104.465 Y97.206 E3.18098
G1 X104.755 Y97.022 E3.18784
G1 X105.048 Y96.843 E3.19469
G1 X105.265 Y96.714 E3.19973
G1 X105.659 Y96.486 E3.20881
G1 X105.911 Y96.345 E3.21457
G1 X106.191 Y96.193 E3.22093
G1 X106.567 Y95.999 E3.22937
G1 X107.079 Y95.747 E3.24076
G1 X107.476 Y95.56 E3.24952
G1 X107.69 Y95.464 E3.2542
G1 X108.102 Y95.285 E3.26317
G1 X108.389 Y95.165 E3.26937
G1 X108.698 Y95.043 E3.276
G1 X109.056 Y94.906 E3.28365
G1 X109.286 Y94.821 E3.28855
G1 X109.835 Y94.627 E3.30017
G1 X109.993 Y94.574 E3.30349
G1 X110.329 Y94.468 E3.31052
G1 X110.774 Y94.335 E3.31979
G1 X111.055 Y94.255 E3.32562
G1 X111.278 Y94.195 E3.33023
G1 X111.543 Y94.127 E3.33569
G1 X112.168 Y93.976 E3.34852
G1 X112.534 Y93.895 E3.356
G1 X112.94 Y93.812 E3.36427
G1 X113.45 Y93.72 E3.37461
G1 X114.028 Y93.631 E3.38628
G1 X114.335 Y93.589 E3.39247
G1 X114.802 Y93.531 E3.40186
G1 X115.279 Y93.482 E3.41143
G1 X115.891 Y93.434 E3.42368
G1 X116.376 Y93.404 E3.43338
G1 X116.858 Y93.387 E3.443
G1 X117.325 Y93.381 E3.45232
G1 X117.623 Y93.381 E3.45827
G1 X118.082 Y93.388 E3.46743
G1 X118.372 Y93.397 E3.47322
G1 X118.63 Y93.408 E3.47837
G1 X118.911 Y93.423 E3.48399
G1 X119.474 Y93.462 E3.49525
G1 X120.008 Y93.513 E3.50595
G1 X120.747 Y93.602 E3.52081
G1 X121.107 Y93.652 E3.52806
G1 X121.474 Y93.709 E3.53547
G1 X121.739 Y93.753 E3.54083
G1 X121.943 Y93.79 E3.54497
G1 X122.255 Y93.852 E3.55132
G1 X122.749 Y93.957 E3.5614
G1 X123.099 Y94.037 E3.56856
G1 X123.389 Y94.109 E3.57453
G1 X123.624 Y94.171 E3.57938
G1 X124.196 Y94.327 E3.59121
G1 X124.779 Y94.504 E3.60337
G1 X125.074 Y94.603 E3.60958
G1 X125.383 Y94.712 E3.61612
G1 X126.412 Y95.093 E3.63801
G1 X126.944 Y95.306 E3.64945
G1 X127.228 Y95.429 E3.65562
G1 X127.477 Y95.541 E3.66107
G1 X127.895 Y95.735 E3.67027
G1 X128.131 Y95.848 E3.67549
G1 X128.487 Y96.024 E3.68342
G1 X128.942 Y96.263 E3.69367
G1 X129.44 Y96.54 E3.70504
G1 X129.833 Y96.77 E3.71413
G1 X130.377 Y97.104 E3.72687
G1 X130.756 Y97.347 E3.73586
G1 X130.937 Y97.469 E3.74021
G1 X131.222 Y97.669 E3.74716
G1 X131.998 Y98.23 E3.76627
G1 X132.281 Y98.441 E3.77331
G1 X132.592 Y98.682 E3.78116
G1 X133.056 Y99.064 E3.79316
G1 X133.456 Y99.412 E3.80374
G1 X133.685 Y99.617 E3.80987
G1 X134.032 Y99.937 E3.81929
G1 X134.289 Y100.182 E3.82638
G1 X134.435 Y100.326 E3.83047
G1 X134.661 Y100.556 E3.83691
G1 X135.243 Y101.166 E3.85373
G1 X135.538 Y101.487 E3.86243
G1 X135.821 Y101.818 E3.87112
G1 X136.308 Y102.413 E3.88647
G1 X136.803 Y103.046 E3.9025
G1 X137.042 Y103.364 E3.91044
G1 X137.29 Y103.71 E3.91894
G1 X137.392 Y103.857 E3.92251
G1 X137.549 Y104.09 E3.92811
G1 X137.798 Y104.47 E3.93718
G1 X137.986 Y104.768 E3.94421
G1 X138.165 Y105.062 E3.95108
G1 X138.304 Y105.297 E3.95653
G1 X138.432 Y105.52 E3.96166
G1 X138.57 Y105.769 E3.96734
G1 X138.889 Y106.361 E3.98076
G1 X139.044 Y106.659 E3.98746
G1 X139.22 Y107.012 E3.99534
G1 X139.354 Y107.291 E4.00151
G1 X139.447 Y107.492 E4.00593
G1 X139.566 Y107.758 E4.01175
G1 X139.719 Y108.114 E4.01948
G1 X139.82 Y108.358 E4.02475
G1 X139.991 Y108.785 E4.03393
G1 X140.122 Y109.129 E4.04127
G1 X140.293 Y109.603 E4.05133
G1 X140.391 Y109.887 E4.05733
G1 X140.52 Y110.288 E4.06573
G1 X140.653 Y110.728 E4.07491
G1 X140.747 Y111.061 E4.08181
G1 X140.81 Y111.297 E4.08668
G1 X140.875 Y111.552 E4.09194
G1 X141.021 Y112.159 E4.1044
G1 X141.093 Y112.479 E4.11094
G1 X141.176 Y112.878 E4.11907
G1 X141.275 Y113.424 E4.13015
G1 X141.37 Y114.041 E4.14261
G1 X141.414 Y114.359 E4.14901
G1 X141.47 Y114.814 E4.15816
G1 X141.503 Y115.123 E4.16436
G1 X141.54 Y115.519 E4.1723
G1 X141.569 Y115.898 E4.17988
G1 X141.597 Y116.386 E4.18964
G1 X141.613 Y116.857 E4.19904
G1 X141.619 Y117.325 E4.20838
G1 X141.619 Y117.623 E4.21433
G1 X141.612 Y118.082 E4.22349
G1 X141.604 Y118.366 E4.22916
G1 X141.593 Y118.627 E4.23437
G1 X141.577 Y118.91 E4.24003
G1 X141.539 Y119.461 E4.25105
G1 X141.488 Y119.998 E4.26182
G1 X141.398 Y120.746 E4.27685
G1 X141.349 Y121.104 E4.28406
G1 X141.298 Y121.433 E4.29071
G1 X141.234 Y121.801 E4.29816
G1 X141.163 Y122.172 E4.3057
G1 X141.112 Y122.422 E4.31079
G1 X140.98 Y123.023 E4.32307
G1 X140.915 Y123.295 E4.32865
G1 X140.837 Y123.599 E4.33491
G1 X140.702 Y124.098 E4.34523
G1 X140.596 Y124.466 E4.35287
G1 X140.499 Y124.772 E4.35928
G1 X140.407 Y125.048 E4.36509
G1 X140.29 Y125.381 E4.37213
G1 X139.894 Y126.449 E4.39486
G1 X139.68 Y126.981 E4.4063
G1 X139.595 Y127.177 E4.41057
G1 X139.481 Y127.43 E4.4161
