;FLAVOR:Marlin
;TIME:15580
;Filament used: 5.40002m
;Layer height: 0.12
;MINX:45.153
;MINY:34.114
;MINZ:0.12
;MAXX:183.961
;MAXY:113.77
;MAXZ:20.16
;Generated with Cura_SteamEngine 5.3.1
M140 S60
M105
M190 S60
M104 S210
M105
M109 S210
M82 ;absolute extrusion mode
; Ender 3 Custom Start G-code
G92 E0 ; Reset Extruder
G28 ; Home all axes
G1 Z2.0 F3000 ; Move Z Axis up little to prevent scratching of Heat Bed
G1 X0.1 Y20 Z0.3 F5000.0 ; Move to start position
G1 X0.1 Y200.0 Z0.3 F1500.0 E15 ; Draw the first line
G1 X0.4 Y200.0 Z0.3 F5000.0 ; Move to side a little
G1 X0.4 Y20 Z0.3 F1500.0 E30 ; Draw the second line
G92 E0 ; Reset Extruder
G1 Z2.0 F3000 ; Move Z Axis up little to prevent scratching of Heat Bed
G1 X5 Y20 Z0.3 F5000.0 ; Move over to prevent blob squish
G92 E0
G92 E0
G1 F2700 E-5
;LAYER_COUNT:168
;LAYER:0
M107 P4010
G1 F300 Z0.32
G0 F6000 X49.948 Y42.646 Z0.32
;TYPE:SKIRT
G1 F300 Z0.12
G1 F2700 E0
G1 F1200 X50.575 Y41.997 E0.01801
G1 X51.258 Y41.405 E0.03605
G1 X52.109 Y40.799 E0.05689
G1 X52.806 Y40.355 E0.07339
G1 X54.986 Y38.927 E0.12539
G1 X57.554 Y37.125 E0.188
G1 X57.917 Y36.862 E0.19694
G1 X58.671 Y36.364 E0.21498
G1 X59.465 Y35.935 E0.23299
G1 X60.295 Y35.577 E0.25103
G1 X61.152 Y35.295 E0.26903
G1 X62.032 Y35.089 E0.28707
G1 X62.926 Y34.962 E0.30509
G1 X63.828 Y34.914 E0.32311
G1 X64.73 Y34.947 E0.34112
G1 X65.992 Y35.128 E0.36657
G1 X68.625 Y35.676 E0.42024
G1 X71.144 Y36.128 E0.47131
G1 X73.625 Y36.501 E0.52138
G1 X76.171 Y36.809 E0.57255
G1 X78.917 Y37.064 E0.62759
G1 X79.675 Y37.163 E0.64285
G1 X80.683 Y37.335 E0.66325
G1 X89.725 Y39.025 E0.84682
G1 X90.406 Y39.162 E0.86068
G1 X90.982 Y39.296 E0.87248
G1 X91.825 Y39.518 E0.88988
G1 X105.17 Y43.241 E1.16636
G1 X105.845 Y43.439 E1.1804
G1 X106.422 Y43.627 E1.19251
G1 X107.479 Y44.009 E1.21494
G1 X112.296 Y45.835 E1.31774
G1 X113.561 Y46.34 E1.34493
G1 X126.172 Y51.851 E1.61957
G1 X126.972 Y52.214 E1.6371
G1 X127.484 Y52.464 E1.64847
G1 X128.033 Y52.757 E1.66089
G1 X134.561 Y56.421 E1.81028
G1 X135.788 Y57.132 E1.83858
G1 X143.555 Y61.76 E2.01901
G1 X145.806 Y63.058 E2.07087
G1 X148.053 Y64.271 E2.12182
G1 X150.3 Y65.402 E2.17203
G1 X152.597 Y66.478 E2.22264
G1 X154.928 Y67.493 E2.27338
G1 X157.323 Y68.454 E2.32488
G1 X159.696 Y69.329 E2.37535
G1 X162.064 Y70.128 E2.42523
G1 X164.526 Y70.881 E2.4766
G1 X166.983 Y71.557 E2.52746
G1 X168.695 Y71.986 E2.56268
G1 X169.56 Y72.244 E2.58069
G1 X170.272 Y72.521 E2.59594
G1 X171.297 Y72.967 E2.61825
G1 X172.042 Y73.306 E2.63458
G1 X172.784 Y73.656 E2.65095
G1 X173.583 Y74.077 E2.66898
G1 X174.342 Y74.567 E2.687
G1 X174.766 Y74.887 E2.69761
G1 X175.612 Y75.559 E2.71917
G1 X176.27 Y76.1 E2.73617
G1 X176.889 Y76.624 E2.75235
G1 X177.551 Y77.238 E2.77037
G1 X178.156 Y77.908 E2.78838
G1 X178.468 Y78.306 E2.79848
G1 X179.136 Y79.208 E2.82088
G1 X180.029 Y80.472 E2.85176
G1 X180.517 Y81.232 E2.86978
G1 X180.935 Y82.033 E2.88781
G1 X181.185 Y82.61 E2.90036
G1 X181.52 Y83.458 E2.91856
G1 X182.301 Y85.543 E2.96299
G1 X182.526 Y86.176 E2.9764
G1 X182.79 Y87.039 E2.99441
G1 X182.977 Y87.923 E3.01244
G1 X183.062 Y88.557 E3.0252
G1 X183.109 Y89.018 E3.03445
G1 X183.161 Y89.92 E3.05248
G1 X183.133 Y90.823 E3.07051
G1 X183.068 Y91.438 E3.08285
G1 X182.977 Y92.069 E3.09557
G1 X182.597 Y94.355 E3.14182
G1 X182.439 Y95.226 E3.15949
G1 X182.238 Y96.106 E3.1775
G1 X181.959 Y96.966 E3.19554
G1 X181.768 Y97.441 E3.20576
G1 X181.325 Y98.461 E3.22795
G1 X180.975 Y99.23 E3.24481
G1 X180.627 Y99.966 E3.26106
G1 X180.205 Y100.764 E3.27907
G1 X179.714 Y101.522 E3.2971
G1 X179.399 Y101.94 E3.30754
G1 X178.829 Y102.658 E3.32584
G1 X178.113 Y103.529 E3.34834
G1 X177.675 Y104.046 E3.36186
G1 X177.061 Y104.709 E3.37989
G1 X176.391 Y105.315 E3.39792
G1 X175.975 Y105.641 E3.40847
G1 X175.193 Y106.222 E3.42791
G1 X174.295 Y106.864 E3.44994
G1 X173.697 Y107.278 E3.46445
G1 X172.932 Y107.759 E3.48249
G1 X172.128 Y108.17 E3.50051
G1 X171.291 Y108.509 E3.51853
G1 X170.797 Y108.669 E3.52889
G1 X169.641 Y109.011 E3.55295
G1 X168.401 Y109.354 E3.57862
G1 X167.604 Y109.563 E3.59506
G1 X166.72 Y109.752 E3.6131
G1 X166.149 Y109.832 E3.62461
G1 X164.91 Y109.966 E3.64948
G1 X164.24 Y110.022 E3.6629
G1 X163.337 Y110.057 E3.68093
G1 X162.546 Y110.022 E3.69673
G1 X161.851 Y109.955 E3.71067
G1 X160.773 Y109.818 E3.73235
G1 X159.883 Y109.664 E3.75038
G1 X159.031 Y109.439 E3.76796
G1 X158.149 Y109.164 E3.7864
G1 X156.228 Y108.533 E3.82675
G1 X155.391 Y108.246 E3.84441
G1 X154.975 Y108.093 E3.85325
G1 X152.332 Y107.054 E3.90993
G1 X149.936 Y106.191 E3.96075
G1 X147.542 Y105.405 E4.01103
G1 X145.084 Y104.674 E4.06221
G1 X142.671 Y104.031 E4.11204
G1 X140.141 Y103.433 E4.16392
G1 X137.687 Y102.925 E4.21393
G1 X135.185 Y102.48 E4.26465
G1 X132.643 Y102.103 E4.31593
G1 X130.168 Y101.806 E4.36567
G1 X127.612 Y101.572 E4.4169
G1 X125.086 Y101.414 E4.4674
G1 X122.554 Y101.327 E4.51796
G1 X119.982 Y101.311 E4.56929
G1 X117.48 Y101.367 E4.61923
G1 X114.928 Y101.495 E4.67022
G1 X112.424 Y101.693 E4.72035
G1 X109.853 Y101.969 E4.77195
G1 X107.345 Y102.31 E4.82246
G1 X104.863 Y102.72 E4.87266
G1 X102.369 Y103.204 E4.92336
G1 X99.884 Y103.759 E4.97418
G1 X97.412 Y104.386 E5.02507
G1 X94.999 Y105.072 E5.07513
G1 X92.547 Y105.843 E5.12643
G1 X90.154 Y106.673 E5.17697
G1 X87.778 Y107.571 E5.22766
G1 X85.392 Y108.551 E5.27914
G1 X83.671 Y109.309 E5.31666
G1 X82.471 Y109.852 E5.34295
G1 X81.641 Y110.185 E5.3608
G1 X80.259 Y110.67 E5.39002
G1 X76.65 Y112.023 E5.46694
G1 X75.791 Y112.303 E5.48497
G1 X75.268 Y112.433 E5.49573
G1 X74.856 Y112.524 E5.50415
G1 X73.966 Y112.679 E5.52217
G1 X72.822 Y112.763 E5.54506
G1 X72.085 Y112.775 E5.55977
G1 X68.426 Y112.778 E5.63279
G1 X64.24 Y112.936 E5.71639
G1 X62.801 Y112.97 E5.74511
G1 X61.765 Y112.964 E5.76579
G1 X60.863 Y112.914 E5.78382
G1 X59.969 Y112.784 E5.80185
G1 X59.066 Y112.568 E5.82037
G1 X58.468 Y112.396 E5.83279
G1 X57.468 Y112.051 E5.8539
G1 X56.668 Y111.728 E5.87112
G1 X55.647 Y111.299 E5.89322
G1 X53.245 Y110.368 E5.94463
G1 X52.591 Y110.123 E5.95857
G1 X51.76 Y109.77 E5.97658
G1 X50.963 Y109.344 E5.99462
G1 X50.207 Y108.85 E6.01264
G1 X49.498 Y108.29 E6.03067
G1 X48.841 Y107.671 E6.04868
G1 X48.242 Y106.995 E6.06671
G1 X47.705 Y106.269 E6.08473
G1 X47.233 Y105.499 E6.10275
G1 X46.832 Y104.69 E6.12077
G1 X46.504 Y103.848 E6.1388
G1 X46.252 Y102.981 E6.15682
G1 X46.078 Y102.095 E6.17484
G1 X45.982 Y101.197 E6.19286
G1 X45.964 Y100.708 E6.20263
G1 X45.953 Y99.836 E6.22003
G1 X45.954 Y79.025 E6.63534
G1 X45.965 Y78.317 E6.64947
G1 X46.019 Y77.415 E6.6675
G1 X46.087 Y76.897 E6.67793
G1 X46.282 Y75.653 E6.70306
G1 X46.65 Y73.067 E6.75518
G1 X46.942 Y70.503 E6.80668
G1 X47.154 Y68.015 E6.85651
G1 X47.299 Y65.454 E6.9077
G1 X47.372 Y62.912 E6.95845
G1 X47.382 Y49.903 E7.21806
G1 X47.392 Y49.246 E7.23117
G1 X47.446 Y48.344 E7.2492
G1 X47.579 Y47.451 E7.26722
G1 X47.791 Y46.573 E7.28525
G1 X48.079 Y45.717 E7.30327
G1 X48.443 Y44.89 E7.3213
G1 X48.877 Y44.099 E7.33931
G1 X49.38 Y43.349 E7.35733
G1 X49.948 Y42.646 E7.37536
G0 F6000 X49.66 Y42.368
G1 F1200 X50.287 Y41.719 E7.39337
G1 X51.026 Y41.079 E7.41288
G1 X51.894 Y40.462 E7.43413
G1 X52.587 Y40.02 E7.45054
G1 X54.767 Y38.592 E7.50254
G1 X57.319 Y36.801 E7.56476
G1 X57.697 Y36.528 E7.57407
G1 X58.481 Y36.012 E7.5928
G1 X59.275 Y35.583 E7.61081
G1 X60.17 Y35.197 E7.63026
G1 X61.027 Y34.915 E7.64826
G1 X61.976 Y34.693 E7.66771
G1 X62.87 Y34.566 E7.68573
G1 X63.843 Y34.514 E7.70518
G1 X64.745 Y34.547 E7.72319
G1 X66.074 Y34.736 E7.74998
G1 X68.706 Y35.284 E7.80363
G1 X71.208 Y35.733 E7.85436
G1 X73.684 Y36.105 E7.90432
G1 X76.22 Y36.412 E7.9553
G1 X78.969 Y36.667 E8.01039
G1 X79.727 Y36.766 E8.02565
G1 X80.756 Y36.942 E8.04648
G1 X89.804 Y38.633 E8.23017
G1 X90.497 Y38.772 E8.24428
G1 X91.084 Y38.909 E8.25631
G1 X91.932 Y39.133 E8.27381
G1 X105.283 Y42.857 E8.55041
G1 X105.969 Y43.059 E8.56468
G1 X106.558 Y43.251 E8.57705
G1 X107.621 Y43.635 E8.5996
G1 X112.444 Y45.464 E8.70254
G1 X113.721 Y45.973 E8.72997
G1 X126.337 Y51.487 E9.00473
G1 X127.148 Y51.855 E9.02251
G1 X127.672 Y52.111 E9.03415
G1 X128.229 Y52.408 E9.04674
G1 X134.762 Y56.075 E9.19625
G1 X135.993 Y56.788 E9.22464
G1 X143.755 Y61.413 E9.40495
G1 X146.006 Y62.711 E9.4568
G1 X148.244 Y63.919 E9.50756
G1 X150.47 Y65.04 E9.55729
G1 X152.757 Y66.111 E9.60769
G1 X155.088 Y67.126 E9.65843
G1 X157.472 Y68.083 E9.70969
G1 X159.824 Y68.95 E9.75972
G1 X162.181 Y69.745 E9.80936
G1 X164.644 Y70.498 E9.86075
G1 X167.089 Y71.171 E9.91136
G1 X168.809 Y71.603 E9.94675
G1 X169.705 Y71.871 E9.96542
G1 X170.432 Y72.154 E9.98098
G1 X171.463 Y72.603 E10.00342
G1 X172.213 Y72.944 E10.01987
G1 X172.97 Y73.302 E10.03658
G1 X173.8 Y73.741 E10.05531
G1 X174.559 Y74.231 E10.07334
G1 X175.015 Y74.574 E10.08473
G1 X175.866 Y75.25 E10.10642
G1 X176.528 Y75.795 E10.12353
G1 X177.161 Y76.331 E10.14008
G1 X177.848 Y76.97 E10.15881
G1 X178.471 Y77.661 E10.17737
G1 X178.789 Y78.068 E10.18768
G1 X179.463 Y78.977 E10.21026
G1 X180.366 Y80.256 E10.24151
G1 X180.872 Y81.047 E10.26025
G1 X181.29 Y81.848 E10.27828
G1 X181.557 Y82.463 E10.29166
G1 X181.895 Y83.318 E10.31
G1 X182.678 Y85.409 E10.35456
G1 X182.909 Y86.059 E10.36833
G1 X183.173 Y86.922 E10.38634
G1 X183.368 Y87.84 E10.40507
G1 X183.46 Y88.516 E10.41868
G1 X183.508 Y88.995 E10.42829
G1 X183.561 Y89.932 E10.44702
G1 X183.531 Y90.865 E10.46565
G1 X183.464 Y91.495 E10.47829
G1 X183.372 Y92.135 E10.49119
G1 X182.991 Y94.426 E10.53754
G1 X182.829 Y95.315 E10.55557
G1 X182.628 Y96.195 E10.57359
G1 X182.33 Y97.115 E10.59289
G1 X182.135 Y97.6 E10.60332
G1 X181.689 Y98.627 E10.62566
G1 X181.337 Y99.401 E10.64263
G1 X180.981 Y100.153 E10.65923
G1 X180.559 Y100.951 E10.67725
G1 X180.05 Y101.739 E10.69597
G1 X179.712 Y102.189 E10.7072
G1 X179.138 Y102.912 E10.72562
G1 X178.418 Y103.788 E10.74825
G1 X177.968 Y104.318 E10.76213
G1 X177.329 Y105.006 E10.78086
G1 X176.638 Y105.63 E10.79944
G1 X176.214 Y105.962 E10.81019
G1 X175.426 Y106.547 E10.82978
G1 X174.523 Y107.193 E10.85193
G1 X173.91 Y107.617 E10.86681
G1 X173.145 Y108.098 E10.88484
G1 X172.278 Y108.541 E10.90427
G1 X171.414 Y108.89 E10.92287
G1 X170.91 Y109.053 E10.93344
G1 X169.748 Y109.397 E10.95762
G1 X168.502 Y109.741 E10.98342
G1 X167.688 Y109.954 E11.00021
G1 X166.804 Y110.143 E11.01825
G1 X166.192 Y110.23 E11.03058
G1 X164.943 Y110.365 E11.05565
G1 X164.255 Y110.422 E11.06943
G1 X163.319 Y110.457 E11.08812
G1 X162.528 Y110.422 E11.10392
G1 X161.801 Y110.352 E11.1185
G1 X160.705 Y110.212 E11.14055
G1 X159.781 Y110.051 E11.15926
G1 X158.912 Y109.821 E11.1772
G1 X158.024 Y109.544 E11.19577
G1 X156.098 Y108.911 E11.23622
G1 X155.253 Y108.621 E11.25405
G1 X154.829 Y108.465 E11.26307
G1 X152.196 Y107.43 E11.31953
G1 X149.811 Y106.571 E11.37011
G1 X147.417 Y105.785 E11.4204
G1 X144.981 Y105.061 E11.47111
G1 X142.568 Y104.417 E11.52095
G1 X140.06 Y103.825 E11.57238
G1 X137.606 Y103.317 E11.62239
G1 X135.126 Y102.876 E11.67266
G1 X132.584 Y102.499 E11.72394
G1 X130.12 Y102.203 E11.77346
G1 X127.587 Y101.971 E11.82422
G1 X125.072 Y101.814 E11.87451
G1 X122.54 Y101.727 E11.92507
G1 X119.989 Y101.711 E11.97598
G1 X117.489 Y101.767 E12.02588
G1 X114.96 Y101.893 E12.07641
G1 X112.462 Y102.091 E12.12642
G1 X109.896 Y102.367 E12.17792
G1 X107.41 Y102.705 E12.22799
G1 X104.933 Y103.114 E12.27809
G1 X102.445 Y103.596 E12.32866
G1 X99.982 Y104.147 E12.37903
G1 X97.51 Y104.774 E12.42993
G1 X95.119 Y105.454 E12.47953
G1 X92.667 Y106.225 E12.53083
G1 X90.285 Y107.051 E12.58114
G1 X87.93 Y107.941 E12.63138
G1 X85.544 Y108.921 E12.68285
G1 X83.832 Y109.675 E12.72019
G1 X82.62 Y110.223 E12.74673
G1 X81.773 Y110.562 E12.76494
G1 X80.399 Y111.045 E12.794
G1 X76.774 Y112.403 E12.87125
G1 X75.915 Y112.683 E12.88928
G1 X75.354 Y112.824 E12.90083
G1 X74.925 Y112.918 E12.90959
G1 X73.995 Y113.078 E12.92842
G1 X72.829 Y113.163 E12.95175
G1 X72.085 Y113.175 E12.9666
G1 X68.441 Y113.178 E13.03932
G1 X64.255 Y113.336 E13.12292
G1 X62.799 Y113.37 E13.15198
G1 X61.743 Y113.363 E13.17305
G1 X60.805 Y113.31 E13.1918
G1 X59.911 Y113.18 E13.20983
G1 X58.955 Y112.952 E13.22944
G1 X58.338 Y112.774 E13.24226
G1 X57.318 Y112.422 E13.26379
G1 X56.513 Y112.097 E13.28112
G1 X55.492 Y111.668 E13.30322
G1 X53.1 Y110.741 E13.35441
G1 X52.435 Y110.491 E13.36859
G1 X51.571 Y110.123 E13.38733
G1 X50.774 Y109.697 E13.40537
G1 X49.959 Y109.164 E13.4248
G1 X49.25 Y108.604 E13.44283
G1 X48.567 Y107.962 E13.46153
G1 X47.92 Y107.233 E13.48099
G1 X47.383 Y106.507 E13.49901
G1 X46.892 Y105.708 E13.51772
G1 X46.459 Y104.835 E13.53717
G1 X46.131 Y103.993 E13.5552
G1 X45.859 Y103.058 E13.57463
G1 X45.685 Y102.172 E13.59265
G1 X45.582 Y101.212 E13.61192
G1 X45.564 Y100.713 E13.62189
G1 X45.553 Y99.836 E13.63939
G1 X45.554 Y79.019 E14.05481
G1 X45.566 Y78.293 E14.0693
G1 X45.622 Y77.363 E14.0879
G1 X45.692 Y76.835 E14.09853
G1 X45.887 Y75.591 E14.12365
G1 X46.254 Y73.011 E14.17566
G1 X46.543 Y70.469 E14.22671
G1 X46.756 Y67.981 E14.27655
G1 X46.899 Y65.443 E14.32728
G1 X46.972 Y62.901 E14.37802
G1 X46.982 Y49.897 E14.63753
G1 X46.993 Y49.222 E14.65101
G1 X47.05 Y48.285 E14.66974
G1 X47.183 Y47.392 E14.68776
G1 X47.402 Y46.479 E14.70649
G1 X47.7 Y45.589 E14.72522
G1 X48.092 Y44.698 E14.74465
G1 X48.545 Y43.876 E14.76338
G1 X49.048 Y43.126 E14.7814
G1 X49.66 Y42.368 E14.80084
G0 F6000 X49.372 Y42.09
G1 F1200 X49.999 Y41.441 E14.81885
G1 X50.794 Y40.753 E14.83983
G1 X51.679 Y40.125 E14.86149
G1 X52.368 Y39.685 E14.8778
G1 X54.548 Y38.257 E14.92981
G1 X57.089 Y36.474 E14.99176
G1 X57.477 Y36.194 E15.0013
G1 X58.291 Y35.66 E15.02073
G1 X59.085 Y35.231 E15.03874
G1 X60.045 Y34.817 E15.05961
G1 X60.902 Y34.535 E15.07761
G1 X61.92 Y34.297 E15.09847
G1 X62.814 Y34.17 E15.11649
G1 X63.858 Y34.114 E15.13736
G1 X64.76 Y34.147 E15.15537
G1 X66.156 Y34.344 E15.1835
G1 X68.787 Y34.892 E15.23714
G1 X71.272 Y35.338 E15.28752
G1 X73.743 Y35.709 E15.33738
G1 X76.269 Y36.015 E15.38816
G1 X79.021 Y36.27 E15.44331
G1 X79.779 Y36.369 E15.45857
G1 X80.829 Y36.549 E15.47983
G1 X89.883 Y38.241 E15.66364
G1 X90.588 Y38.382 E15.67799
G1 X91.186 Y38.522 E15.69024
G1 X92.039 Y38.748 E15.70785
G1 X105.396 Y42.473 E15.98458
G1 X106.093 Y42.679 E15.99908
G1 X106.694 Y42.875 E16.0117
G1 X107.763 Y43.261 E16.03438
G1 X112.592 Y45.092 E16.13744
G1 X113.881 Y45.606 E16.16513
G1 X126.502 Y51.123 E16.44001
G1 X127.324 Y51.496 E16.45803
G1 X127.86 Y51.758 E16.46993
G1 X128.425 Y52.059 E16.48271
G1 X134.962 Y55.729 E16.63231
G1 X136.198 Y56.444 E16.66081
G1 X143.955 Y61.066 E16.841
G1 X146.206 Y62.364 E16.89286
G1 X148.434 Y63.567 E16.94339
G1 X150.64 Y64.678 E16.99268
G1 X152.917 Y65.744 E17.04285
G1 X155.248 Y66.759 E17.09359
G1 X157.621 Y67.712 E17.14462
G1 X159.952 Y68.571 E17.1942
G1 X162.298 Y69.362 E17.2436
G1 X164.762 Y70.115 E17.29502
G1 X167.195 Y70.785 E17.34538
G1 X168.924 Y71.22 E17.38096
G1 X169.85 Y71.498 E17.40025
G1 X170.592 Y71.787 E17.41614
G1 X171.629 Y72.239 E17.43872
G1 X172.384 Y72.582 E17.45527
G1 X173.157 Y72.948 E17.47234
G1 X173.987 Y73.387 E17.49107
G1 X174.799 Y73.911 E17.51036
G1 X175.264 Y74.261 E17.52197
G1 X176.12 Y74.941 E17.54379
G1 X176.786 Y75.49 E17.56101
G1 X177.433 Y76.038 E17.57793
G1 X178.145 Y76.702 E17.59736
G1 X178.768 Y77.393 E17.61593
G1 X179.11 Y77.83 E17.627
G1 X179.79 Y78.746 E17.64977
G1 X180.703 Y80.04 E17.68137
G1 X181.227 Y80.862 E17.70083
G1 X181.645 Y81.663 E17.71886
G1 X181.929 Y82.316 E17.73307
G1 X182.27 Y83.178 E17.75157
G1 X183.055 Y85.275 E17.79625
G1 X183.292 Y85.942 E17.81038
G1 X183.556 Y86.805 E17.82839
G1 X183.764 Y87.786 E17.8484
G1 X183.858 Y88.476 E17.8623
G1 X183.907 Y88.972 E17.87224
G1 X183.961 Y89.945 E17.89169
G1 X183.929 Y90.907 E17.9109
G1 X183.86 Y91.552 E17.92384
G1 X183.767 Y92.201 E17.93693
G1 X183.385 Y94.498 E17.9834
G1 X183.219 Y95.404 E18.00178
G1 X183.009 Y96.318 E18.02049
G1 X182.711 Y97.238 E18.03979
G1 X182.502 Y97.759 E18.05099
G1 X182.053 Y98.793 E18.07349
G1 X181.699 Y99.572 E18.09057
G1 X181.335 Y100.34 E18.10753
G1 X180.913 Y101.138 E18.12554
G1 X180.37 Y101.979 E18.14552
G1 X180.025 Y102.438 E18.15698
G1 X179.447 Y103.166 E18.17553
G1 X178.723 Y104.047 E18.19828
G1 X178.261 Y104.59 E18.21251
G1 X177.597 Y105.303 E18.23195
