;FLAVOR:Marlin
;TIME:10053
;Filament used: 3.35039m
;Layer height: 0.1
;MINX:62.247
;MINY:51.888
;MINZ:0.12
;MAXX:218.577
;MAXY:199.998
;MAXZ:3.22
;Generated with Cura_SteamEngine 4.13.0
M140 S60
M105
M190 S60
M104 S220
M105
M109 S220
M82 ;absolute extrusion mode
; Ender 3 Custom Start G-code
G92 E0 ; Reset Extruder
G28 ; Home all axes
G29; Auto Bed Level
G1 Z2.0 F3000 ; Move Z Axis up little to prevent scratching of Heat Bed
G1 X0.1 Y20 Z0.3 F5000.0 ; Move to start position
G1 X0.1 Y200.0 Z0.3 F1500.0 E15 ; Draw the first line
G1 X0.4 Y200.0 Z0.3 F5000.0 ; Move to side a little
G1 X0.4 Y20 Z0.3 F1500.0 E30 ; Draw the second line
G92 E0 ; Reset Extruder
G1 Z2.0 F3000 ; Move Z Axis up little to prevent scratching of Heat Bed
G1 X5 Y20 Z0.3 F5000.0 ; Move over to prevent blob squish
G92 E0
G92 E0
G1 F2700 E-5
;LAYER_COUNT:32
;LAYER:0
M107
G0 F6000 X70.24 Y57.511 Z0.12
;TYPE:SKIRT
G1 F2700 E0
G1 F1200 X70.596 Y57.087 E0.01105
G1 X70.862 Y56.786 E0.01906
G1 X71.684 Y55.95 E0.04246
G1 X71.835 Y55.812 E0.04654
G1 X72.237 Y55.462 E0.05718
G1 X72.558 Y55.196 E0.0655
G1 X73.522 Y54.483 E0.08943
G1 X73.704 Y54.363 E0.09378
G1 X74.15 Y54.084 E0.10428
G1 X74.511 Y53.87 E0.11265
G1 X75.622 Y53.294 E0.13763
G1 X75.805 Y53.212 E0.14163
G1 X76.235 Y53.03 E0.15095
G1 X76.637 Y52.87 E0.15958
G1 X77.856 Y52.465 E0.18521
G1 X78.035 Y52.417 E0.18891
G1 X78.471 Y52.31 E0.19787
G1 X78.889 Y52.216 E0.20642
G1 X80.07 Y52.017 E0.23032
G1 X80.274 Y51.994 E0.23442
G1 X80.812 Y51.947 E0.2452
G1 X81.239 Y51.92 E0.25373
G1 X81.508 Y51.906 E0.25911
G1 X81.689 Y51.899 E0.26272
G1 X82.008 Y51.892 E0.26909
G1 X82.424 Y51.888 E0.27739
G1 X103.222 Y51.888 E0.69244
G1 X104.084 Y51.899 E0.70964
G1 X104.419 Y51.909 E0.71633
G1 X104.598 Y51.917 E0.71991
G1 X105.129 Y51.954 E0.73053
G1 X105.579 Y51.996 E0.73955
G1 X106.748 Y52.169 E0.76313
G1 X106.93 Y52.206 E0.76684
G1 X107.476 Y52.331 E0.77802
G1 X107.908 Y52.442 E0.78692
G1 X109.082 Y52.815 E0.8115
G1 X109.245 Y52.877 E0.81498
G1 X109.682 Y53.054 E0.82439
G1 X110.091 Y53.23 E0.83327
G1 X111.23 Y53.8 E0.85869
G1 X111.402 Y53.899 E0.86265
G1 X111.793 Y54.135 E0.87177
G1 X112.861 Y54.812 E0.897
G1 X113.943 Y55.516 E0.92276
G1 X116.108 Y56.839 E0.97339
G1 X118.325 Y58.111 E1.0244
G1 X120.505 Y59.282 E1.07379
G1 X122.767 Y60.415 E1.12427
G1 X125.017 Y61.462 E1.1738
G1 X127.357 Y62.472 E1.22466
G1 X129.74 Y63.423 E1.27586
G1 X132.037 Y64.263 E1.32467
G1 X134.456 Y65.071 E1.37556
G1 X136.855 Y65.798 E1.42559
G1 X139.268 Y66.456 E1.4755
G1 X141.741 Y67.056 E1.52628
G1 X144.217 Y67.583 E1.5768
G1 X146.658 Y68.03 E1.62633
G1 X149.179 Y68.418 E1.67723
G1 X151.629 Y68.725 E1.7265
G1 X154.158 Y68.971 E1.77721
G1 X156.692 Y69.143 E1.82789
G1 X159.187 Y69.243 E1.87772
G1 X161.706 Y69.272 E1.928
G1 X164.199 Y69.23 E1.97775
G1 X166.753 Y69.115 E2.02877
G1 X169.216 Y68.934 E2.07806
G1 X171.777 Y68.674 E2.12943
G1 X174.413 Y68.33 E2.18248
G1 X175.482 Y68.243 E2.20388
G1 X175.823 Y68.232 E2.21069
G1 X176.178 Y68.226 E2.21778
G1 X205.118 Y68.227 E2.79531
G1 X205.813 Y68.237 E2.80918
G1 X206.75 Y68.291 E2.82791
G1 X207.678 Y68.424 E2.84661
G1 X208.592 Y68.635 E2.86533
G1 X209.484 Y68.924 E2.88405
G1 X210.349 Y69.288 E2.90277
G1 X211.179 Y69.724 E2.92148
G1 X211.969 Y70.229 E2.9402
G1 X212.713 Y70.799 E2.9589
G1 X213.406 Y71.431 E2.97762
G1 X214.043 Y72.12 E2.99634
G1 X214.619 Y72.86 E3.01506
G1 X215.129 Y73.647 E3.03377
G1 X215.571 Y74.474 E3.05248
G1 X215.941 Y75.336 E3.0712
G1 X216.235 Y76.227 E3.08993
G1 X216.453 Y77.139 E3.10864
G1 X216.593 Y78.066 E3.12735
G1 X216.653 Y79.002 E3.14607
G1 X216.632 Y79.94 E3.16479
G1 X216.587 Y80.457 E3.17515
G1 X216.532 Y80.948 E3.18501
G1 X216.272 Y83.598 E3.23814
G1 X216.1 Y86.062 E3.28743
G1 X215.996 Y88.607 E3.33826
G1 X215.963 Y91.104 E3.3881
G1 X216.002 Y93.654 E3.43899
G1 X216.11 Y96.115 E3.48815
G1 X216.293 Y98.661 E3.53909
G1 X216.544 Y101.155 E3.58911
G1 X216.87 Y103.682 E3.63996
G1 X217.256 Y106.125 E3.68932
G1 X217.725 Y108.628 E3.74014
G1 X218.309 Y111.322 E3.79515
G1 X218.302 Y111.324 E3.79529
G1 X218.427 Y111.936 E3.80776
G1 X218.537 Y112.867 E3.82647
G1 X218.562 Y113.352 E3.83616
G1 X218.572 Y113.682 E3.84275
G1 X218.577 Y114.015 E3.84939
G1 X218.576 Y117.102 E3.911
G1 X218.566 Y117.832 E3.92557
G1 X218.513 Y118.768 E3.94428
G1 X218.381 Y119.697 E3.963
G1 X218.17 Y120.61 E3.9817
G1 X217.882 Y121.503 E4.00043
G1 X217.519 Y122.368 E4.01915
G1 X217.083 Y123.198 E4.03786
G1 X216.599 Y123.96 E4.05587
G1 X215.893 Y124.973 E4.08051
G1 X215.507 Y125.512 E4.09374
G1 X214.098 Y127.604 E4.14408
G1 X213.317 Y128.842 E4.17329
G1 X213.245 Y128.946 E4.17581
G1 X212.556 Y130.027 E4.20139
G1 X212.244 Y130.503 E4.21275
G1 X211.66 Y131.311 E4.23265
G1 X210.968 Y132.183 E4.25486
G1 X210.706 Y132.504 E4.26313
G1 X210.231 Y133.064 E4.27778
G1 X209.541 Y133.804 E4.29798
G1 X208.721 Y134.606 E4.32087
G1 X208.47 Y134.845 E4.32778
G1 X207.92 Y135.35 E4.34268
G1 X207.121 Y136.016 E4.36344
G1 X206.054 Y136.822 E4.39013
G1 X205.791 Y137.013 E4.39661
G1 X205.279 Y137.374 E4.40911
G1 X204.431 Y137.915 E4.42919
G1 X203.265 Y138.585 E4.45602
G1 X202.97 Y138.746 E4.46273
G1 X202.464 Y139.015 E4.47417
G1 X201.561 Y139.443 E4.49411
G1 X200.49 Y139.893 E4.51729
G1 X200.159 Y140.026 E4.52441
G1 X199.461 Y140.293 E4.53932
G1 X198.48 Y140.616 E4.55993
G1 X197.384 Y140.921 E4.58264
G1 X196.897 Y141.048 E4.59268
G1 X196.153 Y141.228 E4.60796
G1 X195.543 Y141.357 E4.6204
G1 X195.303 Y141.401 E4.62527
G1 X192.752 Y141.906 E4.67716
G1 X190.324 Y142.457 E4.72685
G1 X187.845 Y143.094 E4.77793
G1 X185.465 Y143.779 E4.82735
G1 X183.028 Y144.555 E4.87839
G1 X180.673 Y145.379 E4.92818
G1 X178.328 Y146.274 E4.97827
G1 X175.967 Y147.254 E5.02928
G1 X173.697 Y148.271 E5.07892
G1 X171.417 Y149.371 E5.12944
G1 X169.219 Y150.511 E5.17885
G1 X166.979 Y151.753 E5.22997
G1 X164.813 Y153.035 E5.2802
G1 X162.71 Y154.362 E5.32982
G1 X160.604 Y155.776 E5.38044
G1 X158.542 Y157.247 E5.43099
G1 X157.279 Y158.191 E5.46246
G1 X157.011 Y158.395 E5.46918
G1 X156.241 Y158.93 E5.48789
G1 X155.428 Y159.399 E5.50662
G1 X154.606 Y159.784 E5.52473
G1 X153.734 Y160.15 E5.54361
G1 X151.302 Y161.211 E5.59656
G1 X148.996 Y162.296 E5.64741
G1 X146.776 Y163.417 E5.69704
G1 X144.551 Y164.62 E5.74752
G1 X142.381 Y165.877 E5.79757
G1 X140.254 Y167.189 E5.84744
G1 X138.12 Y168.59 E5.89838
G1 X136.071 Y170.02 E5.94825
G1 X134.044 Y171.521 E5.99858
G1 X132.085 Y173.06 E6.0483
G1 X130.127 Y174.689 E6.09912
G1 X128.241 Y176.352 E6.1493
G1 X126.401 Y178.069 E6.19953
G1 X124.626 Y179.819 E6.24927
G1 X122.87 Y181.655 E6.29997
G1 X121.167 Y183.537 E6.35062
G1 X119.55 Y185.431 E6.40032
G1 X117.944 Y187.421 E6.45135
G1 X117.39 Y188.14 E6.46946
G1 X117.235 Y188.337 E6.47447
G1 X116.951 Y188.689 E6.48349
G1 X116.728 Y188.956 E6.49043
G1 X116.414 Y189.321 E6.50004
G1 X115.908 Y189.895 E6.51531
G1 X115.705 Y190.118 E6.52133
G1 X115.515 Y190.322 E6.52689
G1 X115.3 Y190.547 E6.5331
G1 X114.897 Y190.954 E6.54453
G1 X114.358 Y191.483 E6.55961
G1 X114.137 Y191.694 E6.5657
G1 X113.872 Y191.94 E6.57292
G1 X113.646 Y192.144 E6.57899
G1 X113.261 Y192.48 E6.58919
G1 X112.738 Y192.924 E6.60288
G1 X112.491 Y193.128 E6.60928
G1 X112.181 Y193.376 E6.6172
G1 X111.942 Y193.561 E6.62323
G1 X111.497 Y193.895 E6.63433
G1 X110.926 Y194.312 E6.64844
G1 X110.648 Y194.509 E6.65524
G1 X110.395 Y194.682 E6.66136
G1 X110.162 Y194.837 E6.66694
G1 X109.704 Y195.133 E6.67783
G1 X109.427 Y195.308 E6.68437
G1 X109.06 Y195.53 E6.69292
G1 X107.976 Y196.157 E6.71792
G1 X107.641 Y196.343 E6.72556
G1 X107.215 Y196.57 E6.73519
G1 X106.934 Y196.714 E6.7415
G1 X106.642 Y196.859 E6.748
G1 X106.385 Y196.983 E6.7537
G1 X106.004 Y197.16 E6.76208
G1 X105.145 Y197.541 E6.78083
G1 X104.893 Y197.649 E6.7863
G1 X104.614 Y197.764 E6.79233
G1 X104.287 Y197.892 E6.79933
G1 X103.755 Y198.091 E6.81067
G1 X103.062 Y198.339 E6.82536
G1 X102.785 Y198.434 E6.8312
G1 X102.468 Y198.538 E6.83786
G1 X102.149 Y198.637 E6.84452
G1 X101.636 Y198.787 E6.85519
G1 X100.956 Y198.977 E6.86928
G1 X100.689 Y199.048 E6.87479
G1 X100.392 Y199.123 E6.88091
G1 X100.042 Y199.206 E6.88809
G1 X99.469 Y199.329 E6.89978
G1 X98.805 Y199.464 E6.9133
G1 X98.486 Y199.524 E6.91978
G1 X98.214 Y199.571 E6.92529
G1 X97.933 Y199.616 E6.93097
G1 X97.346 Y199.701 E6.9428
G1 X96.625 Y199.795 E6.95731
G1 X96.316 Y199.831 E6.96352
G1 X95.972 Y199.866 E6.97042
G1 X95.62 Y199.896 E6.97747
G1 X95.105 Y199.93 E6.98777
G1 X94.398 Y199.97 E7.0019
G1 X94.049 Y199.985 E7.00888
G1 X93.644 Y199.995 E7.01696
G1 X93.372 Y199.998 E7.02239
G1 X92.907 Y199.997 E7.03167
G1 X92.202 Y199.987 E7.04574
G1 X91.899 Y199.978 E7.05179
G1 X91.588 Y199.965 E7.058
G1 X91.278 Y199.948 E7.0642
G1 X90.658 Y199.903 E7.0766
G1 X89.985 Y199.844 E7.09008
G1 X89.701 Y199.815 E7.09578
G1 X89.35 Y199.775 E7.10283
G1 X89.002 Y199.73 E7.10983
G1 X88.49 Y199.654 E7.12016
G1 X87.783 Y199.541 E7.13445
G1 X87.487 Y199.49 E7.14044
G1 X87.205 Y199.437 E7.14617
G1 X86.904 Y199.376 E7.1523
G1 X86.313 Y199.246 E7.16437
G1 X85.653 Y199.092 E7.1779
G1 X85.313 Y199.007 E7.18489
G1 X84.95 Y198.91 E7.19239
G1 X84.648 Y198.825 E7.19865
G1 X84.203 Y198.691 E7.20793
G1 X83.799 Y198.565 E7.21637
G1 X83.427 Y198.442 E7.22419
G1 X82.283 Y198.04 E7.24839
G1 X81.915 Y197.903 E7.25623
G1 X81.41 Y197.705 E7.26705
G1 X81.156 Y197.602 E7.27252
G1 X80.928 Y197.506 E7.27746
G1 X80.612 Y197.367 E7.28435
G1 X80.076 Y197.12 E7.29612
G1 X79.384 Y196.79 E7.31142
G1 X79.11 Y196.654 E7.31753
G1 X78.893 Y196.543 E7.32239
G1 X78.636 Y196.408 E7.32818
G1 X78.238 Y196.191 E7.33723
G1 X77.715 Y195.894 E7.34923
G1 X77.405 Y195.71 E7.35643
G1 X76.351 Y195.06 E7.38114
G1 X76.002 Y194.835 E7.38943
G1 X75.605 Y194.569 E7.39896
G1 X75.355 Y194.396 E7.40503
G1 X75.061 Y194.187 E7.41223
G1 X74.805 Y194 E7.41856
G1 X74.346 Y193.652 E7.43005
G1 X73.817 Y193.241 E7.44342
G1 X73.594 Y193.064 E7.4491
G1 X73.367 Y192.878 E7.45496
G1 X73.094 Y192.646 E7.46211
G1 X72.626 Y192.235 E7.47454
G1 X72.126 Y191.784 E7.48797
G1 X71.891 Y191.566 E7.49437
G1 X71.616 Y191.303 E7.50196
G1 X71.388 Y191.078 E7.50836
G1 X70.99 Y190.673 E7.51969
G1 X70.547 Y190.211 E7.53246
G1 X70.346 Y189.996 E7.53833
G1 X70.137 Y189.766 E7.54454
G1 X69.941 Y189.544 E7.55045
G1 X69.542 Y189.078 E7.56269
G1 X69.103 Y188.55 E7.57639
G1 X68.914 Y188.316 E7.58239
G1 X68.697 Y188.04 E7.5894
G1 X68.49 Y187.768 E7.59622
G1 X68.159 Y187.318 E7.60737
G1 X67.772 Y186.778 E7.62063
G1 X67.593 Y186.521 E7.62688
G1 X67.419 Y186.263 E7.63309
G1 X67.25 Y186.004 E7.63926
G1 X66.965 Y185.553 E7.64991
G1 X66.564 Y184.899 E7.66522
G1 X66.418 Y184.653 E7.67092
G1 X66.277 Y184.409 E7.67655
G1 X66.123 Y184.134 E7.68284
G1 X65.942 Y183.799 E7.69044
G1 X65.644 Y183.225 E7.70334
G1 X65.478 Y182.889 E7.71082
G1 X64.949 Y181.771 E7.7355
G1 X64.784 Y181.404 E7.74353
G1 X64.587 Y180.945 E7.7535
G1 X64.472 Y180.667 E7.75951
G1 X64.333 Y180.317 E7.76702
G1 X64.218 Y180.016 E7.77345
G1 X64.047 Y179.54 E7.78355
G1 X63.812 Y178.862 E7.79787
G1 X63.706 Y178.541 E7.80461
G1 X63.591 Y178.173 E7.81231
G1 X63.503 Y177.877 E7.81847
G1 X63.37 Y177.402 E7.82831
G1 X63.195 Y176.749 E7.8418
G1 X63.111 Y176.417 E7.84864
G1 X63.018 Y176.021 E7.85675
G1 X62.895 Y175.444 E7.86853
G1 X62.861 Y175.279 E7.87189
G1 X62.726 Y174.578 E7.88614
G1 X62.666 Y174.233 E7.89312
G1 X62.605 Y173.851 E7.90084
G1 X62.565 Y173.579 E7.90633
G1 X62.504 Y173.119 E7.91559
G1 X62.417 Y172.397 E7.9301
G1 X62.382 Y172.068 E7.93671
G1 X62.352 Y171.735 E7.94338
G1 X62.328 Y171.414 E7.9498
G1 X62.297 Y170.874 E7.9606
G1 X62.264 Y170.156 E7.97494
G1 X62.254 Y169.84 E7.98125
G1 X62.248 Y169.491 E7.98821
G1 X62.247 Y169.178 E7.99446
G1 X62.253 Y168.686 E8.00428
G1 X62.27 Y167.967 E8.01863
G1 X62.283 Y167.64 E8.02516
G1 X62.3 Y167.322 E8.03152
G1 X62.322 Y167.001 E8.03794
G1 X62.366 Y166.477 E8.04843
G1 X62.405 Y166.078 E8.05643
G1 X62.449 Y165.695 E8.06413
G1 X62.611 Y164.479 E8.08861
G1 X62.669 Y164.1 E8.09626
G1 X62.758 Y163.573 E8.10693
G1 X62.809 Y163.293 E8.1126
G1 X62.854 Y163.063 E8.11728
G1 X62.924 Y162.731 E8.12405
G1 X63.082 Y162.046 E8.13808
G1 X63.238 Y161.41 E8.15115
G1 X63.317 Y161.104 E8.15746
G1 X63.69 Y159.75 E8.18548
G1 X63.711 Y159.658 E8.18737
G1 X63.881 Y159.058 E8.19981
G1 X64.508 Y156.592 E8.25059
G1 X65.046 Y154.177 E8.29996
G1 X65.525 Y151.712 E8.35008
G1 X65.936 Y149.222 E8.40044
G1 X66.278 Y146.709 E8.45105
G1 X66.545 Y144.22 E8.50101
G1 X66.743 Y141.707 E8.55131
G1 X66.868 Y139.216 E8.60109
G1 X66.929 Y135.882 E8.66763
G1 X66.93 Y67.439 E10.03348
G1 X66.94 Y66.732 E10.04759
G1 X66.954 Y66.323 E10.05576
G1 X66.965 Y66.109 E10.06004
G1 X66.997 Y65.662 E10.06898
G1 X67.025 Y65.359 E10.07505
G1 X67.225 Y64.053 E10.10142
G1 X67.372 Y63.371 E10.11534
G1 X67.608 Y62.464 E10.13405
G1 X67.791 Y61.919 E10.14552
G1 X67.872 Y61.697 E10.15023
G1 X68.112 Y61.095 E10.16317
G1 X68.287 Y60.691 E10.17195
G1 X68.846 Y59.577 E10.19683
G1 X68.93 Y59.431 E10.20019
G1 X69.169 Y59.036 E10.2094
G1 X69.405 Y58.663 E10.21821
G1 X70.102 Y57.684 E10.24219
G1 X70.24 Y57.511 E10.24661
G0 F6000 X70.552 Y57.761
G1 F1200 X70.896 Y57.352 E10.25727
G1 X71.162 Y57.051 E10.26529
G1 X71.954 Y56.245 E10.28784
G1 X72.105 Y56.107 E10.29192
G1 X72.493 Y55.77 E10.30218
G1 X72.814 Y55.504 E10.3105
G1 X73.742 Y54.816 E10.33355
G1 X73.924 Y54.696 E10.3379
G1 X74.354 Y54.428 E10.34801
G1 X74.715 Y54.214 E10.35639
G1 X75.786 Y53.659 E10.38046
G1 X75.969 Y53.577 E10.38446
G1 X76.383 Y53.401 E10.39344
G1 X76.785 Y53.241 E10.40207
G1 X77.96 Y52.852 E10.42677
G1 X78.139 Y52.804 E10.43047
G1 X78.558 Y52.7 E10.43909
G1 X78.976 Y52.606 E10.44764
G1 X80.114 Y52.415 E10.47066
G1 X80.318 Y52.392 E10.47476
G1 X80.837 Y52.346 E10.48516
G1 X81.264 Y52.319 E10.4937
G1 X81.704 Y52.299 E10.50249
G1 X82.011 Y52.291 E10.50862
G1 X82.321 Y52.288 E10.5148
G1 X103.222 Y52.288 E10.9319
G1 X104.078 Y52.299 E10.94899
G1 X104.401 Y52.309 E10.95544
G1 X104.58 Y52.317 E10.95901
G1 X105.092 Y52.352 E10.96925
G1 X105.542 Y52.394 E10.97827
G1 X106.669 Y52.56 E11.00101
G1 X106.851 Y52.597 E11.00471
G1 X107.377 Y52.718 E11.01548
G1 X107.809 Y52.829 E11.02439
G1 X108.939 Y53.189 E11.04805
G1 X109.102 Y53.251 E11.05153
G1 X109.524 Y53.421 E11.06061
G1 X109.933 Y53.597 E11.0695
G1 X111.031 Y54.147 E11.094
G1 X111.203 Y54.246 E11.09797
G1 X111.58 Y54.474 E11.10676
G1 X112.643 Y55.147 E11.13186
G1 X113.764 Y55.876 E11.15855
G1 X115.879 Y57.169 E11.20802
G1 X118.116 Y58.453 E11.25949
G1 X120.31 Y59.631 E11.30919
G1 X122.598 Y60.776 E11.36025
G1 X124.898 Y61.847 E11.41088
G1 X127.199 Y62.841 E11.4609
G1 X129.561 Y63.783 E11.51164
G1 X131.941 Y64.653 E11.56221
G1 X134.318 Y65.447 E11.61223
G1 X136.739 Y66.181 E11.66271
G1 X139.182 Y66.847 E11.71324
G1 X141.634 Y67.442 E11.76359
G1 X144.154 Y67.979 E11.81501
G1 X146.603 Y68.426 E11.86469
G1 X149.069 Y68.806 E11.91449
G1 X151.612 Y69.126 E11.96563
G1 X154.126 Y69.369 E12.01604
G1 X156.648 Y69.541 E12.06648
G1 X159.202 Y69.643 E12.11749
G1 X161.709 Y69.672 E12.16753
G1 X164.223 Y69.63 E12.2177
G1 X166.732 Y69.517 E12.26782
G1 X169.286 Y69.329 E12.31893
G1 X171.799 Y69.074 E12.36934
G1 X174.465 Y68.726 E12.42299
G1 X175.495 Y68.643 E12.44361
G1 X175.836 Y68.632 E12.45042
G1 X176.178 Y68.626 E12.45725
G1 X205.113 Y68.627 E13.03467
G1 X205.808 Y68.637 E13.04855
G1 X206.727 Y68.69 E13.06692
G1 X207.638 Y68.823 E13.08529
G1 X208.534 Y69.034 E13.10366
G1 X209.408 Y69.323 E13.12203
G1 X210.254 Y69.686 E13.1404
G1 X211.065 Y70.121 E13.15877
G1 X211.836 Y70.625 E13.17715
G1 X212.56 Y71.193 E13.19551
G1 X213.232 Y71.823 E13.21389
G1 X213.846 Y72.508 E13.23225
G1 X214.399 Y73.245 E13.25064
G1 X214.886 Y74.026 E13.26901
G1 X215.303 Y74.847 E13.28738
G1 X215.648 Y75.7 E13.30574
G1 X215.917 Y76.581 E13.32413
G1 X216.109 Y77.481 E13.34249
G1 X216.222 Y78.395 E13.36087
G1 X216.255 Y79.315 E13.37924
G1 X216.19 Y80.412 E13.40117
G1 X216.123 Y81.012 E13.41322
G1 X215.876 Y83.532 E13.46375
G1 X215.7 Y86.051 E13.51414
G1 X215.596 Y88.585 E13.56475
G1 X215.563 Y91.105 E13.61505
G1 X215.602 Y93.643 E13.6657
G1 X215.712 Y96.161 E13.716
G1 X215.894 Y98.694 E13.76668
G1 X216.148 Y101.21 E13.81714
G1 X216.473 Y103.729 E13.86783
G1 X216.861 Y106.19 E13.91755
